; generated by Slic3r 1.2.9 on 2019-12-11 at 06:05:55

; external perimeters extrusion width = 0.40mm
; perimeters extrusion width = 0.40mm
; infill extrusion width = 0.40mm
; solid infill extrusion width = 0.40mm
; top infill extrusion width = 0.40mm

M104 S220 ; set temperature
M83
T0
M116


M109 S220 ; wait for temperature to be reached
G21 ; set units to millimeters
G90 ; use absolute coordinates
M83 ; use relative distances for extrusion
G1 E-3.20000 F3000.00000
G1 Z0.400 F15000.000
G1 X-9.408 Y5.979 F15000.000
G1 Z0.200 F15000.000
G1 E3.20000 F3000.00000
G1 X-30.741 Y-27.586 E2.30264 F960.000
G1 X-31.414 Y-29.900 E0.13954
G1 X-31.414 Y-39.800 E0.57319
G1 X-31.019 Y-41.604 E0.10694
G1 X-29.905 Y-43.078 E0.10694
G1 X-28.277 Y-43.950 E0.10694
G1 X-27.100 Y-44.114 E0.06882
G1 X27.100 Y-44.114 E3.13805
G1 X28.904 Y-43.719 E0.10694
G1 X30.378 Y-42.605 E0.10694 F960.000
G1 X31.250 Y-40.977 E0.10694
G1 X31.414 Y-39.800 E0.06882
G1 X31.414 Y39.800 E4.60865
G1 X31.019 Y41.604 E0.10694
G1 X29.905 Y43.078 E0.10694
G1 X28.277 Y43.950 E0.10694
G1 X27.100 Y44.114 E0.06882
G1 X17.200 Y44.114 E0.57319
G1 X15.396 Y43.719 E0.10694
G1 X13.559 Y42.114 E0.14121
G1 X-9.375 Y6.030 E2.47546
G1 X-8.821 Y5.677 F15000.000
G1 X-30.186 Y-27.938 E2.30612 F960.000
G1 X-30.757 Y-29.900 E0.11828
G1 X-30.757 Y-39.800 E0.57319
G1 X-30.363 Y-41.452 E0.09835
G1 X-29.264 Y-42.748 E0.09835
G1 X-27.100 Y-43.457 E0.13185
G1 X27.100 Y-43.457 E3.13805
G1 X28.752 Y-43.063 E0.09835
G1 X30.048 Y-41.964 E0.09835 F960.000
G1 X30.757 Y-39.800 E0.13185
G1 X30.757 Y39.800 E4.60865
G1 X30.363 Y41.452 E0.09835
G1 X29.264 Y42.748 E0.09835
G1 X27.100 Y43.457 E0.13185
G1 X17.200 Y43.457 E0.57319
G1 X15.548 Y43.063 E0.09835
G1 X14.114 Y41.762 E0.11210
G1 X-8.789 Y5.728 E2.47198
G1 E-3.20000 F3000.00000
G1 Z0.600 F15000.000
G1 X2.407 Y-31.564 F15000.000
G1 Z0.200 F15000.000
G1 E3.20000 F3000.00000
G1 X-25.436 Y-31.564 E1.61204 F960.000
G1 X-25.436 Y-38.136 E0.38048
G1 X25.436 Y-38.136 E2.94535
G1 X25.436 Y38.136 E4.41594
G1 X18.864 Y38.136 E0.38048 F960.000
G1 X18.864 Y-31.564 E4.03546
G1 X2.467 Y-31.564 E0.94935
G1 X2.467 Y-30.907 F15000.000
G1 X-26.093 Y-30.907 E1.65356 F960.000
G1 X-26.093 Y-38.793 E0.45657
G1 X26.093 Y-38.793 E3.02143
G1 X26.093 Y38.793 E4.49203
G1 X18.207 Y38.793 E0.45657 F960.000
G1 X18.207 Y-30.907 E4.03546
G1 X2.527 Y-30.907 E0.90783
G1 X2.527 Y-30.250 F15000.000
G1 X-26.750 Y-30.250 E1.69508 F960.000
G1 X-26.750 Y-39.450 E0.53266
G1 X26.750 Y-39.450 E3.09752
G1 X26.750 Y39.450 E4.56812
G1 X17.550 Y39.450 E0.53266 F960.000
G1 X17.550 Y-30.250 E4.03546
G1 X2.587 Y-30.250 E0.86631
G1 X2.327 Y-30.596 F15000.000
G1 X19.263 Y-31.006 F15000.000
G1 X25.037 Y-25.233 E0.47683 F960.000
G1 X25.037 Y-24.295 E0.05474
G1 X19.263 Y-30.069 E0.47683
G1 X19.263 Y-29.132 E0.05474
G1 X25.037 Y-23.358 E0.47683
G1 X25.037 Y-22.421 E0.05474
G1 X19.263 Y-28.194 E0.47683
G1 X19.263 Y-27.257 E0.05474
G1 X25.037 Y-21.484 E0.47683
G1 X25.037 Y-20.546 E0.05474
G1 X19.263 Y-26.320 E0.47683
G1 X19.263 Y-25.382 E0.05474
G1 X25.037 Y-19.609 E0.47683
G1 X25.037 Y-18.672 E0.05474
G1 X19.263 Y-24.445 E0.47683
G1 X19.263 Y-23.508 E0.05474
G1 X25.037 Y-17.734 E0.47683
G1 X25.037 Y-16.797 E0.05474
G1 X19.263 Y-22.570 E0.47683
G1 X19.263 Y-21.633 E0.05474
G1 X25.037 Y-15.860 E0.47683
G1 X25.037 Y-14.922 E0.05474
G1 X19.263 Y-20.696 E0.47683
G1 X19.263 Y-19.758 E0.05474
G1 X25.037 Y-13.985 E0.47683
G1 X25.037 Y-13.048 E0.05474
G1 X19.263 Y-18.821 E0.47683
G1 X19.263 Y-17.884 E0.05474
G1 X25.037 Y-12.110 E0.47683
G1 X25.037 Y-11.173 E0.05474
G1 X19.263 Y-16.946 E0.47683
G1 X19.263 Y-16.009 E0.05474
G1 X25.037 Y-10.236 E0.47683
G1 X25.037 Y-9.298 E0.05474
G1 X19.263 Y-15.072 E0.47683
G1 X19.263 Y-14.135 E0.05474
G1 X25.037 Y-8.361 E0.47683
G1 X25.037 Y-7.424 E0.05474
G1 X19.263 Y-13.197 E0.47683
G1 X19.263 Y-12.260 E0.05474
G1 X25.037 Y-6.486 E0.47683
G1 X25.037 Y-5.549 E0.05474
G1 X19.263 Y-11.323 E0.47683
G1 X19.263 Y-10.385 E0.05474
G1 X25.037 Y-4.612 E0.47683
G1 X25.037 Y-3.674 E0.05474
G1 X19.263 Y-9.448 E0.47683
G1 X19.263 Y-8.511 E0.05474
G1 X25.037 Y-2.737 E0.47683
G1 X25.037 Y-1.800 E0.05474
G1 X19.263 Y-7.573 E0.47683
G1 X19.263 Y-6.636 E0.05474
G1 X25.037 Y-0.863 E0.47683
G1 X25.037 Y0.075 E0.05474
G1 X19.263 Y-5.699 E0.47683
G1 X19.263 Y-4.761 E0.05474
G1 X25.037 Y1.012 E0.47683
G1 X25.037 Y1.949 E0.05474
G1 X19.263 Y-3.824 E0.47683
G1 X19.263 Y-2.887 E0.05474
G1 X25.037 Y2.887 E0.47683
G1 X25.037 Y3.824 E0.05474
G1 X19.263 Y-1.949 E0.47683
G1 X19.263 Y-1.012 E0.05474
G1 X25.037 Y4.761 E0.47683
G1 X25.037 Y5.699 E0.05474
G1 X19.263 Y-0.075 E0.47683
G1 X19.263 Y0.863 E0.05474
G1 X25.037 Y6.636 E0.47683
G1 X25.037 Y7.573 E0.05474
G1 X19.263 Y1.800 E0.47683
G1 X19.263 Y2.737 E0.05474
G1 X25.037 Y8.511 E0.47683
G1 X25.037 Y9.448 E0.05474
G1 X19.263 Y3.675 E0.47683
G1 X19.263 Y4.612 E0.05474
G1 X25.037 Y10.385 E0.47683
G1 X25.037 Y11.323 E0.05474
G1 X19.263 Y5.549 E0.47683
G1 X19.263 Y6.486 E0.05474
G1 X25.037 Y12.260 E0.47683
G1 X25.037 Y13.197 E0.05474
G1 X19.263 Y7.424 E0.47683
G1 X19.263 Y8.361 E0.05474
G1 X25.037 Y14.135 E0.47683
G1 X25.037 Y15.072 E0.05474
G1 X19.263 Y9.298 E0.47683
G1 X19.263 Y10.236 E0.05474
G1 X25.037 Y16.009 E0.47683
G1 X25.037 Y16.947 E0.05474
G1 X19.263 Y11.173 E0.47683
G1 X19.263 Y12.110 E0.05474
G1 X25.037 Y17.884 E0.47683
G1 X25.037 Y18.821 E0.05474
G1 X19.263 Y13.048 E0.47683
G1 X19.263 Y13.985 E0.05474
G1 X25.037 Y19.759 E0.47683
G1 X25.037 Y20.696 E0.05474
G1 X19.263 Y14.922 E0.47683
G1 X19.263 Y15.860 E0.05474
G1 X25.037 Y21.633 E0.47683
G1 X25.037 Y22.570 E0.05474
G1 X19.263 Y16.797 E0.47683
G1 X19.263 Y17.734 E0.05474
G1 X25.037 Y23.508 E0.47683
G1 X25.037 Y24.445 E0.05474
G1 X19.263 Y18.672 E0.47683
G1 X19.263 Y19.609 E0.05474
G1 X25.037 Y25.382 E0.47683
G1 X25.037 Y26.320 E0.05474
G1 X19.263 Y20.546 E0.47683
G1 X19.263 Y21.484 E0.05474
G1 X25.037 Y27.257 E0.47683
G1 X25.037 Y28.194 E0.05474
G1 X19.263 Y22.421 E0.47683
G1 X19.263 Y23.358 E0.05474
G1 X25.037 Y29.132 E0.47683
G1 X25.037 Y30.069 E0.05474
G1 X19.263 Y24.296 E0.47683
G1 X19.263 Y25.233 E0.05474
G1 X25.037 Y31.006 E0.47683
G1 X25.037 Y31.944 E0.05474
G1 X19.263 Y26.170 E0.47683
G1 X19.263 Y27.108 E0.05474
G1 X25.037 Y32.881 E0.47683
G1 X25.037 Y33.818 E0.05474
G1 X19.263 Y28.045 E0.47683
G1 X19.263 Y28.982 E0.05474
G1 X25.037 Y34.756 E0.47683
G1 X25.037 Y35.693 E0.05474
G1 X19.263 Y29.919 E0.47683
G1 X19.263 Y30.857 E0.05474
G1 X25.037 Y36.630 E0.47683
G1 X25.037 Y37.568 E0.05474
G1 X19.263 Y31.794 E0.47683
G1 X19.263 Y32.731 E0.05474
G1 X24.269 Y37.737 E0.41339
G1 X23.331 Y37.737 E0.05474
G1 X19.263 Y33.669 E0.33598
G1 X19.263 Y34.606 E0.05474
G1 X22.394 Y37.737 E0.25856
G1 X21.457 Y37.737 E0.05474
G1 X19.263 Y35.543 E0.18115
G1 X19.263 Y36.481 E0.05474
G1 X20.519 Y37.737 E0.10373
G1 X19.582 Y37.737 E0.05474
G1 X19.263 Y37.418 E0.02632
G1 X25.037 Y-37.418 F15000.000
G1 X24.718 Y-37.737 E0.02633 F960.000
G1 X23.781 Y-37.737 E0.05474
G1 X25.037 Y-36.481 E0.10374
G1 X25.037 Y-35.543 E0.05474
G1 X22.843 Y-37.737 E0.18116
G1 X21.906 Y-37.737 E0.05474
G1 X25.037 Y-34.606 E0.25857
G1 X25.037 Y-33.669 E0.05474
G1 X20.969 Y-37.737 E0.33598
G1 X20.031 Y-37.737 E0.05474
G1 X25.037 Y-32.731 E0.41340
G1 X25.037 Y-31.794 E0.05474
G1 X19.094 Y-37.737 E0.49081
G1 X18.157 Y-37.737 E0.05474
G1 X25.037 Y-30.857 E0.56822
G1 X25.037 Y-29.919 E0.05474
G1 X17.219 Y-37.737 E0.64564
G1 X16.282 Y-37.737 E0.05474
G1 X25.037 Y-28.982 E0.72305
G1 X25.037 Y-28.045 E0.05474
G1 X15.345 Y-37.737 E0.80046
G1 X14.407 Y-37.737 E0.05474
G1 X25.037 Y-27.107 E0.87788
G1 X25.037 Y-26.170 E0.05474
G1 X13.470 Y-37.737 E0.95529
G1 X12.533 Y-37.737 E0.05474
G1 X18.306 Y-31.963 E0.47683
G1 X17.369 Y-31.963 E0.05474
G1 X11.595 Y-37.737 E0.47683
G1 X10.658 Y-37.737 E0.05474
G1 X16.432 Y-31.963 E0.47683
G1 X15.494 Y-31.963 E0.05474
G1 X9.721 Y-37.737 E0.47683
G1 X8.784 Y-37.737 E0.05474
G1 X14.557 Y-31.963 E0.47683
G1 X13.620 Y-31.963 E0.05474
G1 X7.846 Y-37.737 E0.47683
G1 X6.909 Y-37.737 E0.05474
G1 X12.682 Y-31.963 E0.47683
G1 X11.745 Y-31.963 E0.05474
G1 X5.972 Y-37.737 E0.47683
G1 X5.034 Y-37.737 E0.05474
G1 X10.808 Y-31.963 E0.47683
G1 X9.870 Y-31.963 E0.05474
G1 X4.097 Y-37.737 E0.47683
G1 X3.160 Y-37.737 E0.05474
G1 X8.933 Y-31.963 E0.47683
G1 X7.996 Y-31.963 E0.05474
G1 X2.222 Y-37.737 E0.47683
G1 X1.285 Y-37.737 E0.05474
G1 X7.058 Y-31.963 E0.47683
G1 X6.121 Y-31.963 E0.05474
G1 X0.348 Y-37.737 E0.47683
G1 X-0.590 Y-37.737 E0.05474
G1 X5.184 Y-31.963 E0.47683
G1 X4.246 Y-31.963 E0.05474
G1 X-1.527 Y-37.737 E0.47683
G1 X-2.464 Y-37.737 E0.05474
G1 X3.309 Y-31.963 E0.47683
G1 X2.372 Y-31.963 E0.05474
G1 X-3.402 Y-37.737 E0.47683
G1 X-4.339 Y-37.737 E0.05474
G1 X1.435 Y-31.963 E0.47683
G1 X0.497 Y-31.963 E0.05474
G1 X-5.276 Y-37.737 E0.47683
G1 X-6.214 Y-37.737 E0.05474
G1 X-0.440 Y-31.963 E0.47683
G1 X-1.377 Y-31.963 E0.05474
G1 X-7.151 Y-37.737 E0.47683
G1 X-8.088 Y-37.737 E0.05474
G1 X-2.315 Y-31.963 E0.47683
G1 X-3.252 Y-31.963 E0.05474
G1 X-9.026 Y-37.737 E0.47683
G1 X-9.963 Y-37.737 E0.05474
G1 X-4.189 Y-31.963 E0.47683
G1 X-5.127 Y-31.963 E0.05474
G1 X-10.900 Y-37.737 E0.47683
G1 X-11.837 Y-37.737 E0.05474
G1 X-6.064 Y-31.963 E0.47683
G1 X-7.001 Y-31.963 E0.05474
G1 X-12.775 Y-37.737 E0.47683
G1 X-13.712 Y-37.737 E0.05474
G1 X-7.939 Y-31.963 E0.47683
G1 X-8.876 Y-31.963 E0.05474
G1 X-14.649 Y-37.737 E0.47683
G1 X-15.587 Y-37.737 E0.05474
G1 X-9.813 Y-31.963 E0.47683
G1 X-10.751 Y-31.963 E0.05474
G1 X-16.524 Y-37.737 E0.47683
G1 X-17.461 Y-37.737 E0.05474
G1 X-11.688 Y-31.963 E0.47683
G1 X-12.625 Y-31.963 E0.05474
G1 X-18.399 Y-37.737 E0.47683
G1 X-19.336 Y-37.737 E0.05474
G1 X-13.563 Y-31.963 E0.47683
G1 X-14.500 Y-31.963 E0.05474
G1 X-20.273 Y-37.737 E0.47683
G1 X-21.211 Y-37.737 E0.05474
G1 X-15.437 Y-31.963 E0.47683
G1 X-16.375 Y-31.963 E0.05474
G1 X-22.148 Y-37.737 E0.47683
G1 X-23.085 Y-37.737 E0.05474
G1 X-17.312 Y-31.963 E0.47683
G1 X-18.249 Y-31.963 E0.05474
G1 X-24.023 Y-37.737 E0.47683
G1 X-24.960 Y-37.737 E0.05474
G1 X-19.186 Y-31.963 E0.47683
G1 X-20.124 Y-31.963 E0.05474
G1 X-25.037 Y-36.876 E0.40576
G1 X-25.037 Y-35.939 E0.05474
G1 X-21.061 Y-31.963 E0.32835
G1 X-21.998 Y-31.963 E0.05474
G1 X-25.037 Y-35.002 E0.25093
G1 X-25.037 Y-34.064 E0.05474
G1 X-22.936 Y-31.963 E0.17352
G1 X-23.873 Y-31.963 E0.05474
G1 X-25.037 Y-33.127 E0.09611
M104 S230 ; set temperature
G1 E-3.20000 F3000.00000
G1 Z0.600 F15000.000
G1 X18.114 Y-2.617 F15000.000
G1 Z0.400 F15000.000
G1 E3.20000 F3000.00000
G1 X18.114 Y-30.814 E0.88719 F4800.000
G1 X-26.186 Y-30.814 E1.39383
G1 X-26.186 Y-38.886 E0.25396
G1 X26.186 Y-38.886 E1.64780
G1 X26.186 Y38.886 E2.44697
G1 X18.114 Y38.886 E0.25396 F4800.000
G1 X18.114 Y-2.557 E1.30393
G1 X17.757 Y-2.557 F15000.000
G1 X17.757 Y-30.457 E0.87784 F4800.000
G1 X-26.543 Y-30.457 E1.39383
G1 X-26.543 Y-39.243 E0.27643
G1 X26.543 Y-39.243 E1.67027
G1 X26.543 Y39.243 E2.46944
G1 X17.757 Y39.243 E0.27643 F4800.000
G1 X17.757 Y-2.497 E1.31328
G1 X17.400 Y-2.497 F15000.000
G1 X17.400 Y-30.100 E0.86850 F4800.000
G1 X-26.900 Y-30.100 E1.39383
G1 X-26.900 Y-39.600 E0.29890
G1 X26.900 Y-39.600 E1.69274
G1 X26.900 Y39.600 E2.49191
G1 X17.400 Y39.600 E0.29890 F4800.000
G1 X17.400 Y-2.437 E1.32262
G1 X17.746 Y-2.697 F15000.000
G1 X25.787 Y38.678 F15000.000
G1 X25.978 Y38.487 E0.00853 F4800.000
G1 X25.978 Y37.981 E0.01593
G1 X25.281 Y38.678 E0.03106
G1 X24.775 Y38.678 E0.01593
G1 X25.978 Y37.475 E0.05358
G1 X25.978 Y36.970 E0.01593
G1 X24.270 Y38.678 E0.07611
G1 X23.764 Y38.678 E0.01593
G1 X25.978 Y36.464 E0.09863
G1 X25.978 Y35.959 E0.01593
G1 X23.259 Y38.678 E0.12116
G1 X22.753 Y38.678 E0.01593
G1 X25.978 Y35.453 E0.14368
G1 X25.978 Y34.947 E0.01593
G1 X22.247 Y38.678 E0.16621
G1 X21.742 Y38.678 E0.01593
G1 X25.978 Y34.442 E0.18873
G1 X25.978 Y33.936 E0.01593
G1 X21.236 Y38.678 E0.21126
G1 X20.731 Y38.678 E0.01593
G1 X25.978 Y33.431 E0.23378
G1 X25.978 Y32.925 E0.01593
G1 X20.225 Y38.678 E0.25631
G1 X19.719 Y38.678 E0.01593
G1 X25.978 Y32.419 E0.27883
G1 X25.978 Y31.914 E0.01593
G1 X19.214 Y38.678 E0.30136
G1 X18.708 Y38.678 E0.01593
G1 X25.978 Y31.408 E0.32388
G1 X25.978 Y30.903 E0.01593
G1 X18.322 Y38.559 E0.34109
G1 X18.322 Y38.053 E0.01593
G1 X25.978 Y30.397 E0.34109
G1 X25.978 Y29.891 E0.01593
G1 X18.322 Y37.547 E0.34109
G1 X18.322 Y37.042 E0.01593
G1 X25.978 Y29.386 E0.34109
G1 X25.978 Y28.880 E0.01593
G1 X18.322 Y36.536 E0.34109
G1 X18.322 Y36.031 E0.01593
G1 X25.978 Y28.374 E0.34109
G1 X25.978 Y27.869 E0.01593
G1 X18.322 Y35.525 E0.34109
G1 X18.322 Y35.019 E0.01593
G1 X25.978 Y27.363 E0.34109
G1 X25.978 Y26.858 E0.01593
G1 X18.322 Y34.514 E0.34109
G1 X18.322 Y34.008 E0.01593
G1 X25.978 Y26.352 E0.34109
G1 X25.978 Y25.846 E0.01593
G1 X18.322 Y33.503 E0.34109
G1 X18.322 Y32.997 E0.01593
G1 X25.978 Y25.341 E0.34109
G1 X25.978 Y24.835 E0.01593
G1 X18.322 Y32.491 E0.34109
G1 X18.322 Y31.986 E0.01593
G1 X25.978 Y24.330 E0.34109
G1 X25.978 Y23.824 E0.01593
G1 X18.322 Y31.480 E0.34109
G1 X18.322 Y30.975 E0.01593
G1 X25.978 Y23.318 E0.34109
G1 X25.978 Y22.813 E0.01593
G1 X18.322 Y30.469 E0.34109
G1 X18.322 Y29.963 E0.01593
G1 X25.978 Y22.307 E0.34109
G1 X25.978 Y21.802 E0.01593
G1 X18.322 Y29.458 E0.34109
G1 X18.322 Y28.952 E0.01593
G1 X25.978 Y21.296 E0.34109
G1 X25.978 Y20.790 E0.01593
G1 X18.322 Y28.447 E0.34109
G1 X18.322 Y27.941 E0.01593
G1 X25.978 Y20.285 E0.34109
G1 X25.978 Y19.779 E0.01593
G1 X18.322 Y27.435 E0.34109
G1 X18.322 Y26.930 E0.01593
G1 X25.978 Y19.274 E0.34109
G1 X25.978 Y18.768 E0.01593
G1 X18.322 Y26.424 E0.34109
G1 X18.322 Y25.919 E0.01593
G1 X25.978 Y18.262 E0.34109
G1 X25.978 Y17.757 E0.01593
G1 X18.322 Y25.413 E0.34109
G1 X18.322 Y24.907 E0.01593
G1 X25.978 Y17.251 E0.34109
G1 X25.978 Y16.746 E0.01593
G1 X18.322 Y24.402 E0.34109
G1 X18.322 Y23.896 E0.01593
G1 X25.978 Y16.240 E0.34109
G1 X25.978 Y15.734 E0.01593
G1 X18.322 Y23.391 E0.34109
G1 X18.322 Y22.885 E0.01593
G1 X25.978 Y15.229 E0.34109
G1 X25.978 Y14.723 E0.01593
G1 X18.322 Y22.379 E0.34109
G1 X18.322 Y21.874 E0.01593
G1 X25.978 Y14.217 E0.34109
G1 X25.978 Y13.712 E0.01593
G1 X18.322 Y21.368 E0.34109
G1 X18.322 Y20.862 E0.01593
G1 X25.978 Y13.206 E0.34109
G1 X25.978 Y12.701 E0.01593
G1 X18.322 Y20.357 E0.34109
G1 X18.322 Y19.851 E0.01593
G1 X25.978 Y12.195 E0.34109
G1 X25.978 Y11.689 E0.01593
G1 X18.322 Y19.346 E0.34109
G1 X18.322 Y18.840 E0.01593
G1 X25.978 Y11.184 E0.34109
G1 X25.978 Y10.678 E0.01593
G1 X18.322 Y18.334 E0.34109
G1 X18.322 Y17.829 E0.01593
G1 X25.978 Y10.173 E0.34109
G1 X25.978 Y9.667 E0.01593
G1 X18.322 Y17.323 E0.34109
G1 X18.322 Y16.818 E0.01593
G1 X25.978 Y9.161 E0.34109
G1 X25.978 Y8.656 E0.01593
G1 X18.322 Y16.312 E0.34109
G1 X18.322 Y15.806 E0.01593
G1 X25.978 Y8.150 E0.34109
G1 X25.978 Y7.645 E0.01593
G1 X18.322 Y15.301 E0.34109
G1 X18.322 Y14.795 E0.01593
G1 X25.978 Y7.139 E0.34109
G1 X25.978 Y6.633 E0.01593
G1 X18.322 Y14.290 E0.34109
G1 X18.322 Y13.784 E0.01593
G1 X25.978 Y6.128 E0.34109
G1 X25.978 Y5.622 E0.01593
G1 X18.322 Y13.278 E0.34109
G1 X18.322 Y12.773 E0.01593
G1 X25.978 Y5.117 E0.34109
G1 X25.978 Y4.611 E0.01593
G1 X18.322 Y12.267 E0.34109
G1 X18.322 Y11.762 E0.01593
G1 X25.978 Y4.105 E0.34109
G1 X25.978 Y3.600 E0.01593
G1 X18.322 Y11.256 E0.34109
G1 X18.322 Y10.750 E0.01593
G1 X25.978 Y3.094 E0.34109
G1 X25.978 Y2.589 E0.01593
G1 X18.322 Y10.245 E0.34109
G1 X18.322 Y9.739 E0.01593
G1 X25.978 Y2.083 E0.34109
G1 X25.978 Y1.577 E0.01593
G1 X18.322 Y9.234 E0.34109
G1 X18.322 Y8.728 E0.01593
G1 X25.978 Y1.072 E0.34109
G1 X25.978 Y0.566 E0.01593
G1 X18.322 Y8.222 E0.34109
G1 X18.322 Y7.717 E0.01593
G1 X25.978 Y0.061 E0.34109
G1 X25.978 Y-0.445 E0.01593
G1 X18.322 Y7.211 E0.34109
G1 X18.322 Y6.705 E0.01593
G1 X25.978 Y-0.951 E0.34109
G1 X25.978 Y-1.456 E0.01593
G1 X18.322 Y6.200 E0.34109
G1 X18.322 Y5.694 E0.01593
G1 X25.978 Y-1.962 E0.34109
G1 X25.978 Y-2.468 E0.01593
G1 X18.322 Y5.189 E0.34109
G1 X18.322 Y4.683 E0.01593
G1 X25.978 Y-2.973 E0.34109
G1 X25.978 Y-3.479 E0.01593
G1 X18.322 Y4.177 E0.34109
G1 X18.322 Y3.672 E0.01593
G1 X25.978 Y-3.984 E0.34109
G1 X25.978 Y-4.490 E0.01593
G1 X18.322 Y3.166 E0.34109
G1 X18.322 Y2.661 E0.01593
