; generated by Slic3r 1.2.9 on 2019-12-11 at 05:38:37

; external perimeters extrusion width = 0.40mm
; perimeters extrusion width = 0.40mm
; infill extrusion width = 0.40mm
; solid infill extrusion width = 0.40mm
; top infill extrusion width = 0.40mm

M104 S220 ; set temperature
M83
T0
M116


M109 S220 ; wait for temperature to be reached
G21 ; set units to millimeters
G90 ; use absolute coordinates
M83 ; use relative distances for extrusion
G1 E-3.20000 F3000.00000
G1 Z0.400 F15000.000
G1 X9.408 Y5.979 F15000.000
G1 Z0.200 F15000.000
G1 E3.20000 F3000.00000
G1 X-13.559 Y42.114 E2.47893 F960.000
G1 X-14.860 Y43.425 E0.10694
G1 X-17.200 Y44.114 E0.14121
G1 X-27.100 Y44.114 E0.57319
G1 X-28.904 Y43.719 E0.10694
G1 X-30.378 Y42.605 E0.10694
G1 X-31.250 Y40.977 E0.10694
G1 X-31.414 Y39.800 E0.06882
G1 X-31.414 Y-39.800 E4.60865
G1 X-31.019 Y-41.604 E0.10694
G1 X-29.905 Y-43.078 E0.10694
G1 X-28.277 Y-43.950 E0.10694
G1 X-27.100 Y-44.114 E0.06882
G1 X27.100 Y-44.114 E3.13805
G1 X28.904 Y-43.719 E0.10694
G1 X30.378 Y-42.605 E0.10694 F960.000
G1 X31.250 Y-40.977 E0.10694
G1 X31.414 Y-39.800 E0.06882
G1 X31.414 Y-29.900 E0.57319
G1 X30.741 Y-27.586 E0.13954
G1 X9.440 Y5.929 E2.29917
G1 X8.885 Y5.576 F15000.000
G1 X-14.114 Y41.762 E2.48240 F960.000
G1 X-15.333 Y42.945 E0.09835
G1 X-17.200 Y43.457 E0.11210
G1 X-27.100 Y43.457 E0.57319
G1 X-28.752 Y43.063 E0.09835
G1 X-30.048 Y41.964 E0.09835
G1 X-30.757 Y39.800 E0.13185
G1 X-30.757 Y-39.800 E4.60865
G1 X-30.363 Y-41.452 E0.09835
G1 X-29.264 Y-42.748 E0.09835
G1 X-27.100 Y-43.457 E0.13185
G1 X27.100 Y-43.457 E3.13805
G1 X28.752 Y-43.063 E0.09835
G1 X30.048 Y-41.964 E0.09835 F960.000
G1 X30.757 Y-39.800 E0.13185
G1 X30.757 Y-29.900 E0.57319
G1 X30.186 Y-27.938 E0.11828
G1 X8.917 Y5.526 E2.29570
G1 E-3.20000 F3000.00000
G1 Z0.600 F15000.000
G1 X-18.864 Y25.395 F15000.000
G1 Z0.200 F15000.000
G1 E3.20000 F3000.00000
G1 X-18.864 Y38.136 E0.73766 F960.000
G1 X-25.436 Y38.136 E0.38048
G1 X-25.436 Y-38.136 E4.41594
G1 X25.436 Y-38.136 E2.94535
G1 X25.436 Y-31.564 E0.38048
G1 X-18.864 Y-31.564 E2.56486 F960.000
G1 X-18.864 Y25.335 E3.29433
G1 X-18.207 Y25.335 F15000.000
G1 X-18.207 Y38.793 E0.77917 F960.000
G1 X-26.093 Y38.793 E0.45657
G1 X-26.093 Y-38.793 E4.49203
G1 X26.093 Y-38.793 E3.02143
G1 X26.093 Y-30.907 E0.45657
G1 X-18.207 Y-30.907 E2.56486 F960.000
G1 X-18.207 Y25.275 E3.25281
G1 X-17.550 Y25.275 F15000.000
G1 X-17.550 Y39.450 E0.82069 F960.000
G1 X-26.750 Y39.450 E0.53266
G1 X-26.750 Y-39.450 E4.56812
G1 X26.750 Y-39.450 E3.09752
G1 X26.750 Y-30.250 E0.53266
G1 X-17.550 Y-30.250 E2.56486 F960.000
G1 X-17.550 Y25.215 E3.21130
G1 X-17.896 Y25.475 F15000.000
G1 X-25.037 Y37.418 F15000.000
G1 X-24.718 Y37.737 E0.02617 F960.000
G1 X-23.786 Y37.737 E0.05414
G1 X-25.037 Y36.486 E0.10274
G1 X-25.037 Y35.554 E0.05414
G1 X-22.854 Y37.737 E0.17930
G1 X-21.922 Y37.737 E0.05414
G1 X-25.037 Y34.622 E0.25586
G1 X-25.037 Y33.689 E0.05414
G1 X-20.989 Y37.737 E0.33243
G1 X-20.057 Y37.737 E0.05414
G1 X-25.037 Y32.757 E0.40899
G1 X-25.037 Y31.825 E0.05414
G1 X-19.263 Y37.599 E0.47421
G1 X-19.263 Y36.666 E0.05414
G1 X-25.037 Y30.893 E0.47421
G1 X-25.037 Y29.961 E0.05414
G1 X-19.263 Y35.734 E0.47421
G1 X-19.263 Y34.802 E0.05414
G1 X-25.037 Y29.029 E0.47421
G1 X-25.037 Y28.096 E0.05414
G1 X-19.263 Y33.870 E0.47421
G1 X-19.263 Y32.938 E0.05414
G1 X-25.037 Y27.164 E0.47421
G1 X-25.037 Y26.232 E0.05414
G1 X-19.263 Y32.006 E0.47421
G1 X-19.263 Y31.073 E0.05414
G1 X-25.037 Y25.300 E0.47421
G1 X-25.037 Y24.368 E0.05414
G1 X-19.263 Y30.141 E0.47421
G1 X-19.263 Y29.209 E0.05414
G1 X-25.037 Y23.436 E0.47421
G1 X-25.037 Y22.504 E0.05414
G1 X-19.263 Y28.277 E0.47421
G1 X-19.263 Y27.345 E0.05414
G1 X-25.037 Y21.571 E0.47421
G1 X-25.037 Y20.639 E0.05414
G1 X-19.263 Y26.413 E0.47421
G1 X-19.263 Y25.480 E0.05414
G1 X-25.037 Y19.707 E0.47421
G1 X-25.037 Y18.775 E0.05414
G1 X-19.263 Y24.548 E0.47421
G1 X-19.263 Y23.616 E0.05414
G1 X-25.037 Y17.843 E0.47421
G1 X-25.037 Y16.911 E0.05414
G1 X-19.263 Y22.684 E0.47421
G1 X-19.263 Y21.752 E0.05414
G1 X-25.037 Y15.978 E0.47421
G1 X-25.037 Y15.046 E0.05414
G1 X-19.263 Y20.820 E0.47421
G1 X-19.263 Y19.888 E0.05414
G1 X-25.037 Y14.114 E0.47421
G1 X-25.037 Y13.182 E0.05414
G1 X-19.263 Y18.955 E0.47421
G1 X-19.263 Y18.023 E0.05414
G1 X-25.037 Y12.250 E0.47421
G1 X-25.037 Y11.318 E0.05414
G1 X-19.263 Y17.091 E0.47421
G1 X-19.263 Y16.159 E0.05414
G1 X-25.037 Y10.385 E0.47421
G1 X-25.037 Y9.453 E0.05414
G1 X-19.263 Y15.227 E0.47421
G1 X-19.263 Y14.295 E0.05414
G1 X-25.037 Y8.521 E0.47421
G1 X-25.037 Y7.589 E0.05414
G1 X-19.263 Y13.362 E0.47421
G1 X-19.263 Y12.430 E0.05414
G1 X-25.037 Y6.657 E0.47421
G1 X-25.037 Y5.725 E0.05414
G1 X-19.263 Y11.498 E0.47421
G1 X-19.263 Y10.566 E0.05414
G1 X-25.037 Y4.792 E0.47421
G1 X-25.037 Y3.860 E0.05414
G1 X-19.263 Y9.634 E0.47421
G1 X-19.263 Y8.702 E0.05414
G1 X-25.037 Y2.928 E0.47421
G1 X-25.037 Y1.996 E0.05414
G1 X-19.263 Y7.769 E0.47421
G1 X-19.263 Y6.837 E0.05414
G1 X-25.037 Y1.064 E0.47421
G1 X-25.037 Y0.132 E0.05414
G1 X-19.263 Y5.905 E0.47421
G1 X-19.263 Y4.973 E0.05414
G1 X-25.037 Y-0.801 E0.47421
G1 X-25.037 Y-1.733 E0.05414
G1 X-19.263 Y4.041 E0.47421
G1 X-19.263 Y3.109 E0.05414
G1 X-25.037 Y-2.665 E0.47421
G1 X-25.037 Y-3.597 E0.05414
G1 X-19.263 Y2.176 E0.47421
G1 X-19.263 Y1.244 E0.05414
G1 X-25.037 Y-4.529 E0.47421
G1 X-25.037 Y-5.461 E0.05414
G1 X-19.263 Y0.312 E0.47421
G1 X-19.263 Y-0.620 E0.05414
G1 X-25.037 Y-6.393 E0.47421
G1 X-25.037 Y-7.326 E0.05414
G1 X-19.263 Y-1.552 E0.47421
G1 X-19.263 Y-2.484 E0.05414
G1 X-25.037 Y-8.258 E0.47421
G1 X-25.037 Y-9.190 E0.05414
G1 X-19.263 Y-3.416 E0.47421
G1 X-19.263 Y-4.349 E0.05414
G1 X-25.037 Y-10.122 E0.47421
G1 X-25.037 Y-11.054 E0.05414
G1 X-19.263 Y-5.281 E0.47421
G1 X-19.263 Y-6.213 E0.05414
G1 X-25.037 Y-11.986 E0.47421
G1 X-25.037 Y-12.919 E0.05414
G1 X-19.263 Y-7.145 E0.47421
G1 X-19.263 Y-8.077 E0.05414
G1 X-25.037 Y-13.851 E0.47421
G1 X-25.037 Y-14.783 E0.05414
G1 X-19.263 Y-9.009 E0.47421
G1 X-19.263 Y-9.942 E0.05414
G1 X-25.037 Y-15.715 E0.47421
G1 X-25.037 Y-16.647 E0.05414
G1 X-19.263 Y-10.874 E0.47421
G1 X-19.263 Y-11.806 E0.05414
G1 X-25.037 Y-17.579 E0.47421
G1 X-25.037 Y-18.512 E0.05414
G1 X-19.263 Y-12.738 E0.47421
G1 X-19.263 Y-13.670 E0.05414
G1 X-25.037 Y-19.444 E0.47421
G1 X-25.037 Y-20.376 E0.05414
G1 X-19.263 Y-14.602 E0.47421
G1 X-19.263 Y-15.535 E0.05414
G1 X-25.037 Y-21.308 E0.47421
G1 X-25.037 Y-22.240 E0.05414
G1 X-19.263 Y-16.467 E0.47421
G1 X-19.263 Y-17.399 E0.05414
G1 X-25.037 Y-23.172 E0.47421
G1 X-25.037 Y-24.105 E0.05414
G1 X-19.263 Y-18.331 E0.47421
G1 X-19.263 Y-19.263 E0.05414
G1 X-25.037 Y-25.037 E0.47421
G1 X-25.037 Y-25.969 E0.05414
G1 X-19.263 Y-20.195 E0.47421
G1 X-19.263 Y-21.128 E0.05414
G1 X-25.037 Y-26.901 E0.47421
G1 X-25.037 Y-27.833 E0.05414
G1 X-19.263 Y-22.060 E0.47421
G1 X-19.263 Y-22.992 E0.05414
G1 X-25.037 Y-28.765 E0.47421
G1 X-25.037 Y-29.697 E0.05414
G1 X-19.263 Y-23.924 E0.47421
G1 X-19.263 Y-24.856 E0.05414
G1 X-25.037 Y-30.630 E0.47421
G1 X-25.037 Y-31.562 E0.05414
G1 X-19.263 Y-25.788 E0.47421
G1 X-19.263 Y-26.720 E0.05414
G1 X-25.037 Y-32.494 E0.47421
G1 X-25.037 Y-33.426 E0.05414
G1 X-19.263 Y-27.653 E0.47421
G1 X-19.263 Y-28.585 E0.05414
G1 X-25.037 Y-34.358 E0.47421
G1 X-25.037 Y-35.290 E0.05414
G1 X-19.263 Y-29.517 E0.47421
G1 X-19.263 Y-30.449 E0.05414
G1 X-25.037 Y-36.223 E0.47421
G1 X-25.037 Y-37.155 E0.05414
G1 X-19.263 Y-31.381 E0.47421
G1 X-18.913 Y-31.963 F15000.000
G1 X-24.687 Y-37.737 E0.47421 F960.000
G1 X-23.754 Y-37.737 E0.05414
G1 X-17.981 Y-31.963 E0.47421
G1 X-17.049 Y-31.963 E0.05414
G1 X-22.822 Y-37.737 E0.47421
G1 X-21.890 Y-37.737 E0.05414
G1 X-16.117 Y-31.963 E0.47421
G1 X-15.184 Y-31.963 E0.05414
G1 X-20.958 Y-37.737 E0.47421
G1 X-20.026 Y-37.737 E0.05414
G1 X-14.252 Y-31.963 E0.47421
G1 X-13.320 Y-31.963 E0.05414
G1 X-19.094 Y-37.737 E0.47421
G1 X-18.161 Y-37.737 E0.05414
G1 X-12.388 Y-31.963 E0.47421
G1 X-11.456 Y-31.963 E0.05414
G1 X-17.229 Y-37.737 E0.47421
G1 X-16.297 Y-37.737 E0.05414
G1 X-10.524 Y-31.963 E0.47421
G1 X-9.591 Y-31.963 E0.05414
G1 X-15.365 Y-37.737 E0.47421
G1 X-14.433 Y-37.737 E0.05414
G1 X-8.659 Y-31.963 E0.47421
G1 X-7.727 Y-31.963 E0.05414
G1 X-13.501 Y-37.737 E0.47421
G1 X-12.568 Y-37.737 E0.05414
G1 X-6.795 Y-31.963 E0.47421
G1 X-5.863 Y-31.963 E0.05414
G1 X-11.636 Y-37.737 E0.47421
G1 X-10.704 Y-37.737 E0.05414
G1 X-4.931 Y-31.963 E0.47421
G1 X-3.999 Y-31.963 E0.05414
G1 X-9.772 Y-37.737 E0.47421
G1 X-8.840 Y-37.737 E0.05414
G1 X-3.066 Y-31.963 E0.47421
G1 X-2.134 Y-31.963 E0.05414
G1 X-7.908 Y-37.737 E0.47421
G1 X-6.975 Y-37.737 E0.05414
G1 X-1.202 Y-31.963 E0.47421
G1 X-0.270 Y-31.963 E0.05414
G1 X-6.043 Y-37.737 E0.47421
G1 X-5.111 Y-37.737 E0.05414
G1 X0.662 Y-31.963 E0.47421
G1 X1.594 Y-31.963 E0.05414
G1 X-4.179 Y-37.737 E0.47421
G1 X-3.247 Y-37.737 E0.05414
G1 X2.527 Y-31.963 E0.47421
G1 X3.459 Y-31.963 E0.05414
G1 X-2.315 Y-37.737 E0.47421
G1 X-1.383 Y-37.737 E0.05414
G1 X4.391 Y-31.963 E0.47421
G1 X5.323 Y-31.963 E0.05414
G1 X-0.450 Y-37.737 E0.47421
G1 X0.482 Y-37.737 E0.05414
G1 X6.255 Y-31.963 E0.47421
G1 X7.187 Y-31.963 E0.05414
G1 X1.414 Y-37.737 E0.47421
G1 X2.346 Y-37.737 E0.05414
G1 X8.120 Y-31.963 E0.47421
G1 X9.052 Y-31.963 E0.05414
G1 X3.278 Y-37.737 E0.47421
G1 X4.210 Y-37.737 E0.05414
G1 X9.984 Y-31.963 E0.47421
G1 X10.916 Y-31.963 E0.05414
G1 X5.143 Y-37.737 E0.47421
G1 X6.075 Y-37.737 E0.05414
G1 X11.848 Y-31.963 E0.47421
G1 X12.780 Y-31.963 E0.05414
G1 X7.007 Y-37.737 E0.47421
G1 X7.939 Y-37.737 E0.05414
G1 X13.713 Y-31.963 E0.47421
G1 X14.645 Y-31.963 E0.05414
G1 X8.871 Y-37.737 E0.47421
G1 X9.803 Y-37.737 E0.05414
G1 X15.577 Y-31.963 E0.47421
G1 X16.509 Y-31.963 E0.05414
G1 X10.736 Y-37.737 E0.47421
G1 X11.668 Y-37.737 E0.05414
G1 X17.441 Y-31.963 E0.47421
G1 X18.373 Y-31.963 E0.05414
G1 X12.600 Y-37.737 E0.47421
G1 X13.532 Y-37.737 E0.05414
G1 X19.305 Y-31.963 E0.47421
G1 X20.238 Y-31.963 E0.05414
G1 X14.464 Y-37.737 E0.47421
G1 X15.396 Y-37.737 E0.05414
G1 X21.170 Y-31.963 E0.47421
G1 X22.102 Y-31.963 E0.05414
G1 X16.329 Y-37.737 E0.47421
G1 X17.261 Y-37.737 E0.05414
G1 X23.034 Y-31.963 E0.47421
G1 X23.966 Y-31.963 E0.05414
G1 X18.193 Y-37.737 E0.47421
G1 X19.125 Y-37.737 E0.05414
G1 X24.898 Y-31.963 E0.47421
G1 X25.037 Y-32.757 E0.04680
G1 X20.057 Y-37.737 E0.40900
G1 X20.989 Y-37.737 E0.05414
G1 X25.037 Y-33.689 E0.33244
G1 X25.037 Y-34.621 E0.05414
G1 X21.921 Y-37.737 E0.25587
G1 X22.854 Y-37.737 E0.05414
G1 X25.037 Y-35.554 E0.17931
G1 X25.037 Y-36.486 E0.05414
G1 X23.786 Y-37.737 E0.10275
G1 X24.718 Y-37.737 E0.05414
G1 X25.037 Y-37.418 E0.02618
M104 S230 ; set temperature
G1 E-3.20000 F3000.00000
G1 Z0.600 F15000.000
G1 X11.726 Y-38.886 F15000.000
G1 Z0.400 F15000.000
G1 E3.20000 F3000.00000
G1 X26.186 Y-38.886 E0.45497 F4800.000
G1 X26.186 Y-30.814 E0.25396
G1 X-18.114 Y-30.814 E1.39383 F4800.000
G1 X-18.114 Y38.886 E2.19301
G1 X-26.186 Y38.886 E0.25396
G1 X-26.186 Y-38.886 E2.44697
G1 X11.666 Y-38.886 E1.19094
G1 X11.666 Y-39.243 F15000.000
G1 X26.543 Y-39.243 E0.46809 F4800.000
G1 X26.543 Y-30.457 E0.27643
G1 X-17.757 Y-30.457 E1.39383 F4800.000
G1 X-17.757 Y39.243 E2.19301
G1 X-26.543 Y39.243 E0.27643
G1 X-26.543 Y-39.243 E2.46944
G1 X11.606 Y-39.243 E1.20029
G1 X11.606 Y-39.600 F15000.000
G1 X26.900 Y-39.600 E0.48122 F4800.000
G1 X26.900 Y-30.100 E0.29890
G1 X-17.400 Y-30.100 E1.39383 F4800.000
G1 X-17.400 Y39.600 E2.19301
G1 X-26.900 Y39.600 E0.29890
G1 X-26.900 Y-39.600 E2.49191
G1 X11.546 Y-39.600 E1.20963
G1 X11.806 Y-39.254 F15000.000
G1 X25.978 Y-31.658 F15000.000
G1 X25.342 Y-31.022 E0.02842 F4800.000
G1 X24.835 Y-31.022 E0.01600
G1 X25.978 Y-32.165 E0.05105
G1 X25.978 Y-32.672 E0.01600
G1 X24.328 Y-31.022 E0.07368
G1 X23.821 Y-31.022 E0.01600
G1 X25.978 Y-33.179 E0.09630
G1 X25.978 Y-33.685 E0.01600
G1 X23.315 Y-31.022 E0.11893
G1 X22.808 Y-31.022 E0.01600
G1 X25.978 Y-34.192 E0.14156
G1 X25.978 Y-34.699 E0.01600
G1 X22.301 Y-31.022 E0.16419
G1 X21.794 Y-31.022 E0.01600
G1 X25.978 Y-35.206 E0.18682
G1 X25.978 Y-35.712 E0.01600
G1 X21.288 Y-31.022 E0.20945
G1 X20.781 Y-31.022 E0.01600
G1 X25.978 Y-36.219 E0.23207
G1 X25.978 Y-36.726 E0.01600
G1 X20.274 Y-31.022 E0.25470
G1 X19.767 Y-31.022 E0.01600
G1 X25.978 Y-37.233 E0.27733
G1 X25.978 Y-37.740 E0.01600
G1 X19.260 Y-31.022 E0.29996
G1 X18.754 Y-31.022 E0.01600
G1 X25.978 Y-38.246 E0.32259
G1 X25.903 Y-38.678 E0.01384
G1 X18.247 Y-31.022 E0.34187
G1 X17.740 Y-31.022 E0.01600
G1 X25.396 Y-38.678 E0.34187
G1 X24.890 Y-38.678 E0.01600
G1 X17.233 Y-31.022 E0.34187
G1 X16.727 Y-31.022 E0.01600
G1 X24.383 Y-38.678 E0.34187
G1 X23.876 Y-38.678 E0.01600
G1 X16.220 Y-31.022 E0.34187
G1 X15.713 Y-31.022 E0.01600
G1 X23.369 Y-38.678 E0.34187
G1 X22.863 Y-38.678 E0.01600
G1 X15.206 Y-31.022 E0.34187
G1 X14.700 Y-31.022 E0.01600
G1 X22.356 Y-38.678 E0.34187
G1 X21.849 Y-38.678 E0.01600
G1 X14.193 Y-31.022 E0.34187
G1 X13.686 Y-31.022 E0.01600
G1 X21.342 Y-38.678 E0.34187
G1 X20.836 Y-38.678 E0.01600
G1 X13.179 Y-31.022 E0.34187
G1 X12.673 Y-31.022 E0.01600
G1 X20.329 Y-38.678 E0.34187
G1 X19.822 Y-38.678 E0.01600
G1 X12.166 Y-31.022 E0.34187
G1 X11.659 Y-31.022 E0.01600
G1 X19.315 Y-38.678 E0.34187
G1 X18.808 Y-38.678 E0.01600
G1 X11.152 Y-31.022 E0.34187
G1 X10.646 Y-31.022 E0.01600
G1 X18.302 Y-38.678 E0.34187
G1 X17.795 Y-38.678 E0.01600
G1 X10.139 Y-31.022 E0.34187
G1 X9.632 Y-31.022 E0.01600
G1 X17.288 Y-38.678 E0.34187
G1 X16.781 Y-38.678 E0.01600
G1 X9.125 Y-31.022 E0.34187
G1 X8.618 Y-31.022 E0.01600
G1 X16.275 Y-38.678 E0.34187
G1 X15.768 Y-38.678 E0.01600
G1 X8.112 Y-31.022 E0.34187
G1 X7.605 Y-31.022 E0.01600
G1 X15.261 Y-38.678 E0.34187
G1 X14.754 Y-38.678 E0.01600
G1 X7.098 Y-31.022 E0.34187
G1 X6.591 Y-31.022 E0.01600
G1 X14.248 Y-38.678 E0.34187
G1 X13.741 Y-38.678 E0.01600
G1 X6.085 Y-31.022 E0.34187
G1 X5.578 Y-31.022 E0.01600
G1 X13.234 Y-38.678 E0.34187
G1 X12.727 Y-38.678 E0.01600
G1 X5.071 Y-31.022 E0.34187
G1 X4.564 Y-31.022 E0.01600
G1 X12.221 Y-38.678 E0.34187
G1 X11.714 Y-38.678 E0.01600
G1 X4.058 Y-31.022 E0.34187
G1 X3.551 Y-31.022 E0.01600
G1 X11.207 Y-38.678 E0.34187
G1 X10.700 Y-38.678 E0.01600
G1 X3.044 Y-31.022 E0.34187
G1 X2.537 Y-31.022 E0.01600
G1 X10.193 Y-38.678 E0.34187
G1 X9.687 Y-38.678 E0.01600
G1 X2.031 Y-31.022 E0.34187
G1 X1.524 Y-31.022 E0.01600
G1 X9.180 Y-38.678 E0.34187
G1 X8.673 Y-38.678 E0.01600
G1 X1.017 Y-31.022 E0.34187
G1 X0.510 Y-31.022 E0.01600
G1 X8.166 Y-38.678 E0.34187
G1 X7.660 Y-38.678 E0.01600
G1 X0.003 Y-31.022 E0.34187
G1 X-0.503 Y-31.022 E0.01600
G1 X7.153 Y-38.678 E0.34187
G1 X6.646 Y-38.678 E0.01600
G1 X-1.010 Y-31.022 E0.34187
G1 X-1.517 Y-31.022 E0.01600
G1 X6.139 Y-38.678 E0.34187
G1 X5.633 Y-38.678 E0.01600
G1 X-2.024 Y-31.022 E0.34187
G1 X-2.530 Y-31.022 E0.01600
G1 X5.126 Y-38.678 E0.34187
G1 X4.619 Y-38.678 E0.01600
G1 X-3.037 Y-31.022 E0.34187
G1 X-3.544 Y-31.022 E0.01600
G1 X4.112 Y-38.678 E0.34187
G1 X3.606 Y-38.678 E0.01600
G1 X-4.051 Y-31.022 E0.34187
G1 X-4.557 Y-31.022 E0.01600
G1 X3.099 Y-38.678 E0.34187
G1 X2.592 Y-38.678 E0.01600
G1 X-5.064 Y-31.022 E0.34187
G1 X-5.571 Y-31.022 E0.01600
G1 X2.085 Y-38.678 E0.34187
G1 X1.578 Y-38.678 E0.01600
G1 X-6.078 Y-31.022 E0.34187
G1 X-6.584 Y-31.022 E0.01600
G1 X1.072 Y-38.678 E0.34187
G1 X0.565 Y-38.678 E0.01600
G1 X-7.091 Y-31.022 E0.34187
G1 X-7.598 Y-31.022 E0.01600
G1 X0.058 Y-38.678 E0.34187
G1 X-0.449 Y-38.678 E0.01600
G1 X-8.105 Y-31.022 E0.34187
G1 X-8.612 Y-31.022 E0.01600
G1 X-0.955 Y-38.678 E0.34187
G1 X-1.462 Y-38.678 E0.01600
G1 X-9.118 Y-31.022 E0.34187
G1 X-9.625 Y-31.022 E0.01600
G1 X-1.969 Y-38.678 E0.34187
G1 X-2.476 Y-38.678 E0.01600
G1 X-10.132 Y-31.022 E0.34187
G1 X-10.639 Y-31.022 E0.01600
G1 X-2.982 Y-38.678 E0.34187
G1 X-3.489 Y-38.678 E0.01600
G1 X-11.145 Y-31.022 E0.34187
G1 X-11.652 Y-31.022 E0.01600
G1 X-3.996 Y-38.678 E0.34187
G1 X-4.503 Y-38.678 E0.01600
G1 X-12.159 Y-31.022 E0.34187
G1 X-12.666 Y-31.022 E0.01600
G1 X-5.009 Y-38.678 E0.34187
G1 X-5.516 Y-38.678 E0.01600
G1 X-13.172 Y-31.022 E0.34187
G1 X-13.679 Y-31.022 E0.01600
G1 X-6.023 Y-38.678 E0.34187
G1 X-6.530 Y-38.678 E0.01600
