; generated by Slic3r 1.2.9 on 2019-12-16 at 05:08:18

; external perimeters extrusion width = 0.40mm
; perimeters extrusion width = 0.40mm
; infill extrusion width = 0.40mm
; solid infill extrusion width = 0.40mm
; top infill extrusion width = 0.40mm

M104 S220 ; set temperature
M83
T0
M116


M109 S220 ; wait for temperature to be reached
G21 ; set units to millimeters
G90 ; use absolute coordinates
M83 ; use relative distances for extrusion
G1 E-3.20000 F3000.00000
G1 Z0.400 F15000.000
G1 X0.000 Y-20.868 F15000.000
G1 Z0.200 F15000.000
G1 E3.20000 F3000.00000
G1 X46.958 Y-20.868 E2.71877 F960.000
G1 X48.762 Y-20.473 E0.10694
G1 X50.009 Y-19.605 E0.08795 F960.000
G1 X57.459 Y-12.155 E0.61001
G1 X58.455 Y-10.599 E0.10694
G1 X58.709 Y-8.760 E0.10753
G1 X57.250 Y9.449 E1.05760
G1 X56.711 Y11.216 E0.10694
G1 X56.000 Y12.155 E0.06822
G1 X48.550 Y19.605 E0.61000
G1 X46.994 Y20.601 E0.10694
G1 X45.499 Y20.868 E0.08795
G1 X-54.429 Y20.868 E5.78560
G1 X-56.233 Y20.473 E0.10694
G1 X-57.707 Y19.359 E0.10694
G1 X-58.579 Y17.732 E0.10694
G1 X-58.743 Y16.554 E0.06882
G1 X-58.743 Y1.654 E0.86267
G1 X-58.729 Y1.310 E0.01997
G1 X-57.270 Y-16.899 E1.05760
G1 X-56.732 Y-18.666 E0.10694
G1 X-55.504 Y-20.045 E0.10694
G1 X-52.970 Y-20.868 E0.15427
G1 X-0.060 Y-20.868 E3.06335
G1 X-0.060 Y-20.211 F15000.000
G1 X46.958 Y-20.211 E2.72225 F960.000
G1 X48.611 Y-19.817 E0.09835
G1 X49.544 Y-19.140 E0.06676 F960.000
G1 X56.994 Y-11.690 E0.61001
G1 X57.884 Y-10.243 E0.09835
G1 X58.054 Y-8.812 E0.08342
G1 X56.595 Y9.396 E1.05760
G1 X56.069 Y11.012 E0.09835
G1 X55.535 Y11.690 E0.04999
G1 X48.085 Y19.140 E0.61000
G1 X46.638 Y20.029 E0.09835
G1 X45.499 Y20.211 E0.06676
G1 X-54.429 Y20.211 E5.78560
G1 X-56.081 Y19.817 E0.09835
G1 X-57.377 Y18.718 E0.09835
G1 X-58.086 Y16.554 E0.13185
G1 X-58.074 Y1.362 E0.87959
G1 X-56.615 Y-16.846 E1.05760
G1 X-56.090 Y-18.462 E0.09835
G1 X-54.892 Y-19.666 E0.09835
G1 X-52.970 Y-20.211 E0.11566
G1 X-0.120 Y-20.211 E3.05988
G1 E-3.20000 F3000.00000
G1 Z0.600 F15000.000
G1 X-41.122 Y-5.608 F15000.000
G1 Z0.200 F15000.000
G1 E3.20000 F3000.00000
G1 X-41.062 Y-5.227 E0.02229 F600.000
G1 X-41.074 Y-4.858 E0.02138
G1 X-41.154 Y-4.498 E0.02137
G1 X-41.301 Y-4.159 E0.02136
G1 X-41.508 Y-3.854 E0.02139
G1 X-41.769 Y-3.593 E0.02138
G1 X-42.075 Y-3.385 E0.02138
G1 X-42.428 Y-3.232 E0.02231
G1 X-42.881 Y-3.146 E0.02666
G1 X-43.266 Y-3.158 E0.02230
G1 X-43.626 Y-3.239 E0.02137
G1 X-43.965 Y-3.385 E0.02138
G1 X-44.270 Y-3.593 E0.02138
G1 X-44.531 Y-3.854 E0.02138
G1 X-44.748 Y-4.172 E0.02231
G1 X-44.917 Y-4.601 E0.02665
G1 X-44.978 Y-4.981 E0.02229
G1 X-44.966 Y-5.350 E0.02138
G1 X-44.885 Y-5.710 E0.02137
G1 X-44.739 Y-6.049 E0.02136
G1 X-44.531 Y-6.355 E0.02139
G1 X-44.270 Y-6.616 E0.02138
G1 X-43.952 Y-6.832 E0.02230
G1 X-43.523 Y-7.002 E0.02667
G1 X-43.143 Y-7.062 E0.02230 F600.000
G1 X-42.774 Y-7.050 E0.02137
G1 X-42.414 Y-6.970 E0.02137
G1 X-42.075 Y-6.823 E0.02138
G1 X-41.769 Y-6.616 E0.02138
G1 X-41.508 Y-6.355 E0.02138
G1 X-41.292 Y-6.036 E0.02231
G1 X-41.144 Y-5.664 E0.02318
G1 X-41.760 Y-5.433 F15000.000
G1 X-41.721 Y-5.186 E0.01450 F600.000
G1 X-41.729 Y-4.941 E0.01418
G1 X-41.782 Y-4.702 E0.01418
G1 X-41.879 Y-4.477 E0.01418
G1 X-42.017 Y-4.275 E0.01419
G1 X-42.190 Y-4.101 E0.01419
G1 X-42.393 Y-3.964 E0.01418
G1 X-42.623 Y-3.864 E0.01451
G1 X-42.933 Y-3.805 E0.01826
G1 X-43.183 Y-3.813 E0.01451
G1 X-43.422 Y-3.866 E0.01418
G1 X-43.647 Y-3.964 E0.01419
G1 X-43.850 Y-4.101 E0.01418
G1 X-44.023 Y-4.275 E0.01419
G1 X-44.164 Y-4.482 E0.01451
G1 X-44.280 Y-4.775 E0.01826
G1 X-44.319 Y-5.022 E0.01450
G1 X-44.311 Y-5.267 E0.01418
G1 X-44.258 Y-5.506 E0.01418
G1 X-44.161 Y-5.731 E0.01418
G1 X-44.023 Y-5.934 E0.01419
G1 X-43.850 Y-6.107 E0.01419
G1 X-43.642 Y-6.248 E0.01450
G1 X-43.349 Y-6.364 E0.01827
G1 X-43.102 Y-6.403 E0.01450 F600.000
G1 X-42.857 Y-6.395 E0.01418
G1 X-42.618 Y-6.342 E0.01418
G1 X-42.393 Y-6.245 E0.01419
G1 X-42.190 Y-6.107 E0.01418
G1 X-42.017 Y-5.934 E0.01419
G1 X-41.876 Y-5.727 E0.01451
G1 X-41.782 Y-5.489 E0.01478
G1 X-41.520 Y-5.361 F15000.000
G1 X-44.887 Y-7.599 F15000.000
G1 X-45.000 Y-7.433 E0.01161 F600.000
G1 X-45.349 Y-7.084 E0.02857
G1 X-45.757 Y-6.807 E0.02857
G1 X-46.234 Y-6.600 E0.03010
G1 X-46.829 Y-6.487 E0.03506
G1 X-47.348 Y-6.503 E0.03010
G1 X-47.830 Y-6.611 E0.02856
G1 X-48.283 Y-6.807 E0.02857
G1 X-48.691 Y-7.084 E0.02857
G1 X-49.040 Y-7.433 E0.02857
G1 X-49.332 Y-7.863 E0.03011
G1 X-49.555 Y-8.426 E0.03505
G1 X-49.636 Y-8.939 E0.03008
G1 X-49.621 Y-9.433 E0.02858
G1 X-49.513 Y-9.914 E0.02856
G1 X-49.317 Y-10.367 E0.02855
G1 X-49.040 Y-10.775 E0.02859
G1 X-48.691 Y-11.124 E0.02857
G1 X-48.261 Y-11.416 E0.03009
G1 X-47.698 Y-11.639 E0.03507
G1 X-47.184 Y-11.721 E0.03009 F600.000
G1 X-46.691 Y-11.705 E0.02857
G1 X-46.210 Y-11.597 E0.02856
G1 X-45.757 Y-11.402 E0.02857
G1 X-45.349 Y-11.124 E0.02857
G1 X-45.000 Y-10.775 E0.02857
G1 X-44.708 Y-10.345 E0.03011
G1 X-44.485 Y-9.782 E0.03505
G1 X-44.403 Y-9.269 E0.03009
G1 X-44.419 Y-8.776 E0.02858
G1 X-44.527 Y-8.294 E0.02856
G1 X-44.722 Y-7.842 E0.02855
G1 X-44.853 Y-7.649 E0.01351
G1 X-45.397 Y-8.018 F15000.000
G1 X-45.508 Y-7.854 E0.01148 F600.000
G1 X-45.769 Y-7.593 E0.02138
G1 X-46.075 Y-7.385 E0.02137
G1 X-46.428 Y-7.232 E0.02231
G1 X-46.881 Y-7.146 E0.02666
G1 X-47.266 Y-7.158 E0.02230
G1 X-47.626 Y-7.239 E0.02137
G1 X-47.965 Y-7.385 E0.02138
G1 X-48.270 Y-7.593 E0.02138
G1 X-48.531 Y-7.854 E0.02138
G1 X-48.748 Y-8.172 E0.02231
G1 X-48.917 Y-8.601 E0.02665
G1 X-48.978 Y-8.981 E0.02229
G1 X-48.966 Y-9.350 E0.02138
G1 X-48.885 Y-9.710 E0.02137
G1 X-48.739 Y-10.049 E0.02136
G1 X-48.531 Y-10.355 E0.02139
G1 X-48.270 Y-10.616 E0.02138
G1 X-47.952 Y-10.832 E0.02230
G1 X-47.523 Y-11.002 E0.02667
G1 X-47.143 Y-11.062 E0.02230 F600.000
G1 X-46.774 Y-11.050 E0.02138
G1 X-46.414 Y-10.970 E0.02137
G1 X-46.075 Y-10.823 E0.02138
G1 X-45.769 Y-10.616 E0.02138
G1 X-45.508 Y-10.355 E0.02138
G1 X-45.292 Y-10.036 E0.02231
G1 X-45.122 Y-9.608 E0.02665
G1 X-45.062 Y-9.227 E0.02230
G1 X-45.074 Y-8.858 E0.02138
G1 X-45.154 Y-8.498 E0.02137
G1 X-45.301 Y-8.159 E0.02136
G1 X-45.363 Y-8.067 E0.00644
G1 X-45.907 Y-8.437 F15000.000
G1 X-46.017 Y-8.275 E0.01136 F600.000
G1 X-46.190 Y-8.101 E0.01419
G1 X-46.393 Y-7.964 E0.01418
G1 X-46.623 Y-7.864 E0.01451
G1 X-46.933 Y-7.805 E0.01826
G1 X-47.183 Y-7.813 E0.01451
G1 X-47.422 Y-7.866 E0.01418
G1 X-47.647 Y-7.964 E0.01419
G1 X-47.850 Y-8.101 E0.01418
G1 X-48.023 Y-8.274 E0.01419
G1 X-48.164 Y-8.482 E0.01451
G1 X-48.280 Y-8.775 E0.01826
G1 X-48.319 Y-9.022 E0.01450
G1 X-48.311 Y-9.267 E0.01418
G1 X-48.258 Y-9.506 E0.01418
G1 X-48.161 Y-9.731 E0.01418
G1 X-48.023 Y-9.934 E0.01419
G1 X-47.850 Y-10.107 E0.01419
G1 X-47.642 Y-10.248 E0.01450
G1 X-47.349 Y-10.364 E0.01827
G1 X-47.102 Y-10.403 E0.01450 F600.000
G1 X-46.857 Y-10.395 E0.01418
G1 X-46.618 Y-10.342 E0.01418
G1 X-46.393 Y-10.245 E0.01419
G1 X-46.190 Y-10.107 E0.01418
G1 X-46.017 Y-9.934 E0.01419
G1 X-45.876 Y-9.727 E0.01451
G1 X-45.760 Y-9.433 E0.01826
G1 X-45.721 Y-9.186 E0.01450
G1 X-45.729 Y-8.941 E0.01418
G1 X-45.782 Y-8.702 E0.01418
G1 X-45.875 Y-8.487 E0.01354
G1 X-45.812 Y-8.265 F15000.000
G1 X41.478 Y-14.890 F15000.000
G1 X46.269 Y-14.890 E0.27739 F960.000
G1 X52.055 Y-9.104 E0.47374
G1 X46.269 Y-3.318 E0.47374
G1 X-41.078 Y-3.318 E5.05717
G1 X-40.722 Y-3.842 E0.03663
G1 X-40.527 Y-4.294 E0.02855
G1 X-40.419 Y-4.776 E0.02856
G1 X-40.403 Y-5.269 E0.02858
G1 X-40.485 Y-5.782 E0.03008
G1 X-40.708 Y-6.345 E0.03505
G1 X-41.000 Y-6.775 E0.03011
G1 X-41.349 Y-7.124 E0.02857
G1 X-41.757 Y-7.402 E0.02857
G1 X-42.210 Y-7.597 E0.02857
G1 X-42.691 Y-7.705 E0.02856
G1 X-43.184 Y-7.721 E0.02857
G1 X-43.698 Y-7.639 E0.03009
G1 X-44.261 Y-7.416 E0.03507
G1 X-44.691 Y-7.124 E0.03010
G1 X-45.040 Y-6.775 E0.02857
G1 X-45.317 Y-6.367 E0.02859
G1 X-45.513 Y-5.914 E0.02855
G1 X-45.621 Y-5.433 E0.02856
G1 X-45.636 Y-4.939 E0.02858
G1 X-45.555 Y-4.426 E0.03008
G1 X-45.332 Y-3.863 E0.03505
G1 X-44.962 Y-3.318 E0.03814
G1 X-51.306 Y-3.318 E0.36729
G1 X-51.306 Y-14.890 E0.66997
G1 X-44.962 Y-14.890 E0.36729
G1 X-45.317 Y-14.367 E0.03662
G1 X-45.513 Y-13.914 E0.02855 F960.000
G1 X-45.621 Y-13.433 E0.02856
G1 X-45.636 Y-12.939 E0.02858
G1 X-45.555 Y-12.426 E0.03008
G1 X-45.332 Y-11.863 E0.03505
G1 X-45.040 Y-11.433 E0.03011
G1 X-44.691 Y-11.084 E0.02857
G1 X-44.283 Y-10.807 E0.02857
G1 X-43.830 Y-10.611 E0.02857
G1 X-43.348 Y-10.503 E0.02856
G1 X-42.855 Y-10.488 E0.02857
G1 X-42.342 Y-10.569 E0.03009
G1 X-41.779 Y-10.792 E0.03507
G1 X-41.349 Y-11.084 E0.03010
G1 X-41.000 Y-11.433 E0.02857
G1 X-40.722 Y-11.842 E0.02859
G1 X-40.527 Y-12.294 E0.02855
G1 X-40.419 Y-12.776 E0.02856
G1 X-40.403 Y-13.269 E0.02858
G1 X-40.485 Y-13.782 E0.03008
G1 X-40.708 Y-14.345 E0.03505
G1 X-41.078 Y-14.890 E0.03814
G1 X41.418 Y-14.890 E4.77630
G1 X-41.062 Y-13.227 F15000.000
G1 X-41.074 Y-12.858 E0.02138 F600.000
G1 X-41.154 Y-12.498 E0.02137
G1 X-41.301 Y-12.159 E0.02136
G1 X-41.508 Y-11.854 E0.02139
G1 X-41.769 Y-11.593 E0.02138
G1 X-42.088 Y-11.376 E0.02230
G1 X-42.516 Y-11.207 E0.02667
G1 X-42.897 Y-11.146 E0.02230
G1 X-43.266 Y-11.158 E0.02137
G1 X-43.626 Y-11.239 E0.02137
G1 X-43.965 Y-11.385 E0.02138
G1 X-44.270 Y-11.593 E0.02138
G1 X-44.531 Y-11.854 E0.02138
G1 X-44.748 Y-12.172 E0.02231
G1 X-44.917 Y-12.601 E0.02665
G1 X-44.978 Y-12.981 E0.02229
G1 X-44.966 Y-13.350 E0.02138
G1 X-44.885 Y-13.710 E0.02137
G1 X-44.739 Y-14.049 E0.02137
G1 X-44.531 Y-14.355 E0.02139
G1 X-44.270 Y-14.616 E0.02138
G1 X-43.965 Y-14.823 E0.02138
G1 X-43.611 Y-14.976 E0.02231
G1 X-43.159 Y-15.062 E0.02666 F600.000
G1 X-42.774 Y-15.050 E0.02230
G1 X-42.414 Y-14.970 E0.02137
G1 X-42.075 Y-14.823 E0.02138
G1 X-41.769 Y-14.616 E0.02138
G1 X-41.508 Y-14.355 E0.02138
G1 X-41.292 Y-14.036 E0.02231
G1 X-41.122 Y-13.608 E0.02665
G1 X-41.072 Y-13.287 E0.01882
G1 X-41.721 Y-13.186 F15000.000
G1 X-41.729 Y-12.941 E0.01418 F600.000
G1 X-41.782 Y-12.702 E0.01418
G1 X-41.879 Y-12.477 E0.01418
G1 X-42.017 Y-12.275 E0.01419
G1 X-42.190 Y-12.101 E0.01419
G1 X-42.397 Y-11.960 E0.01450
G1 X-42.691 Y-11.844 E0.01827
G1 X-42.938 Y-11.805 E0.01450
G1 X-43.183 Y-11.813 E0.01418
G1 X-43.422 Y-11.866 E0.01418
G1 X-43.647 Y-11.964 E0.01419
G1 X-43.850 Y-12.101 E0.01418
G1 X-44.023 Y-12.274 E0.01419
G1 X-44.164 Y-12.482 E0.01451
G1 X-44.280 Y-12.775 E0.01826
G1 X-44.319 Y-13.022 E0.01450
G1 X-44.311 Y-13.267 E0.01418
G1 X-44.258 Y-13.506 E0.01418
G1 X-44.161 Y-13.731 E0.01418
G1 X-44.023 Y-13.934 E0.01419
G1 X-43.850 Y-14.107 E0.01418
G1 X-43.647 Y-14.245 E0.01418
G1 X-43.417 Y-14.344 E0.01451
G1 X-43.107 Y-14.403 E0.01826 F600.000
G1 X-42.857 Y-14.395 E0.01450
G1 X-42.618 Y-14.342 E0.01418
G1 X-42.393 Y-14.245 E0.01419
G1 X-42.190 Y-14.107 E0.01418
G1 X-42.017 Y-13.934 E0.01419
G1 X-41.876 Y-13.727 E0.01451
G1 X-41.760 Y-13.433 E0.01826
G1 X-41.730 Y-13.245 E0.01103
G1 X-41.505 Y-13.070 F15000.000
G1 X-41.730 Y-15.547 F15000.000
G1 X46.541 Y-15.547 E5.11070 F960.000
G1 X52.984 Y-9.104 E0.52754
G1 X46.541 Y-2.661 E0.52754 F960.000
G1 X-51.963 Y-2.661 E5.70314
G1 X-51.963 Y-15.547 E0.74606
G1 X-41.790 Y-15.547 E0.58896
G1 X-41.790 Y-16.204 F15000.000
G1 X46.813 Y-16.204 E5.12993 F960.000
G1 X53.913 Y-9.104 E0.58135
G1 X46.813 Y-2.004 E0.58135 F960.000
G1 X-52.620 Y-2.004 E5.75694
G1 X-52.620 Y-16.204 E0.82215
G1 X-41.850 Y-16.204 E0.62353
G1 X-41.590 Y-15.858 F15000.000
G1 X-45.787 Y-14.177 F15000.000
G1 X-46.100 Y-14.491 E0.02639 F960.000
G1 X-47.054 Y-14.491 E0.05668
G1 X-46.001 Y-13.438 E0.08852
G1 X-45.990 Y-12.473 E0.05732
G1 X-48.008 Y-14.491 E0.16958
G1 X-48.962 Y-14.491 E0.05668
G1 X-46.576 Y-12.105 E0.20050
G1 X-47.482 Y-12.057 E0.05390
G1 X-49.916 Y-14.491 E0.20453
G1 X-50.868 Y-14.489 E0.05659
G1 X-48.203 Y-11.824 E0.22401
G1 X-48.800 Y-11.467 E0.04133
G1 X-50.907 Y-13.574 E0.17707
G1 X-50.907 Y-12.620 E0.05668
G1 X-49.292 Y-11.006 E0.13569
G1 X-49.675 Y-10.435 E0.04085
G1 X-50.907 Y-11.667 E0.10351
G1 X-50.907 Y-10.713 E0.05668
G1 X-49.933 Y-9.740 E0.08179
G1 X-50.033 Y-8.885 E0.05111
G1 X-50.907 Y-9.759 E0.07342
G1 X-50.907 Y-8.805 E0.05668
G1 X-49.737 Y-7.636 E0.09830
G1 X-50.907 Y-7.851 E0.07068
G1 X-46.773 Y-3.717 E0.34743
G1 X-45.819 Y-3.717 E0.05668
G1 X-48.490 Y-6.389 E0.22452
G1 X-47.244 Y-6.096 E0.07609
G1 X-46.033 Y-4.885 E0.10176
G1 X-45.933 Y-5.740 E0.05111
G1 X-46.383 Y-6.190 E0.03782
G1 X-47.726 Y-3.717 F15000.000
G1 X-50.907 Y-6.898 E0.26727 F960.000
G1 X-50.907 Y-5.944 E0.05668
G1 X-48.680 Y-3.717 E0.18711
G1 X-49.634 Y-3.717 E0.05668
G1 X-50.907 Y-4.990 E0.10695
G1 X-50.907 Y-4.036 E0.05668
G1 X-50.588 Y-3.717 E0.02679
G1 X-44.042 Y-8.758 F15000.000
G1 X-43.361 Y-8.076 E0.05628 F960.000
G1 X-42.438 Y-8.092 E0.05388
G1 X-44.043 Y-9.697 E0.13262
G1 X-43.513 Y-10.105 E0.03907
G1 X-37.126 Y-3.717 E0.52778
G1 X-36.188 Y-3.717 E0.05479
G1 X-42.613 Y-10.142 E0.53090
G1 X-41.895 Y-10.362 E0.04390
G1 X-35.250 Y-3.717 E0.54901
G1 X-34.313 Y-3.717 E0.05479
G1 X-41.297 Y-10.702 E0.57715
G1 X-40.804 Y-11.146 E0.03880
G1 X-33.375 Y-3.717 E0.61386
G1 X-32.437 Y-3.717 E0.05479
G1 X-40.409 Y-11.689 E0.65871
G1 X-40.133 Y-12.351 E0.04189
G1 X-31.499 Y-3.717 E0.71339
G1 X-30.562 Y-3.717 E0.05479
G1 X-40.012 Y-13.168 E0.78087
G1 X-40.187 Y-14.281 E0.06586
G1 X-29.624 Y-3.717 E0.87287
G1 X-28.686 Y-3.717 E0.05479
G1 X-39.459 Y-14.491 E0.89022
G1 X-38.522 Y-14.491 E0.05479
G1 X-27.748 Y-3.717 E0.89022
G1 X-26.810 Y-3.717 E0.05479
G1 X-37.584 Y-14.491 E0.89022
G1 X-36.646 Y-14.491 E0.05479
G1 X-25.873 Y-3.717 E0.89022
G1 X-24.935 Y-3.717 E0.05479
G1 X-35.708 Y-14.491 E0.89022
G1 X-34.771 Y-14.491 E0.05479
G1 X-23.997 Y-3.717 E0.89022
G1 X-23.059 Y-3.717 E0.05479
G1 X-33.833 Y-14.491 E0.89022
G1 X-32.895 Y-14.491 E0.05479
G1 X-22.122 Y-3.717 E0.89022
G1 X-21.184 Y-3.717 E0.05479
G1 X-31.957 Y-14.491 E0.89022
G1 X-31.019 Y-14.491 E0.05479
G1 X-20.246 Y-3.717 E0.89022
G1 X-19.308 Y-3.717 E0.05479
G1 X-30.082 Y-14.491 E0.89022
G1 X-29.144 Y-14.491 E0.05479
G1 X-18.370 Y-3.717 E0.89022
G1 X-17.433 Y-3.717 E0.05479
G1 X-28.206 Y-14.491 E0.89022
G1 X-27.268 Y-14.491 E0.05479
G1 X-16.495 Y-3.717 E0.89022
G1 X-15.557 Y-3.717 E0.05479
G1 X-26.331 Y-14.491 E0.89022
G1 X-25.393 Y-14.491 E0.05479
G1 X-14.619 Y-3.717 E0.89022
G1 X-13.682 Y-3.717 E0.05479
G1 X-24.455 Y-14.491 E0.89022
G1 X-23.517 Y-14.491 E0.05479
G1 X-12.744 Y-3.717 E0.89022
G1 X-11.806 Y-3.717 E0.05479
G1 X-22.579 Y-14.491 E0.89022
G1 X-21.642 Y-14.491 E0.05479
G1 X-10.868 Y-3.717 E0.89022
G1 X-9.930 Y-3.717 E0.05479
G1 X-20.704 Y-14.491 E0.89022
G1 X-19.766 Y-14.491 E0.05479
G1 X-8.993 Y-3.717 E0.89022
G1 X-8.055 Y-3.717 E0.05479
G1 X-18.828 Y-14.491 E0.89022
G1 X-17.891 Y-14.491 E0.05479
G1 X-7.117 Y-3.717 E0.89022
G1 X-6.179 Y-3.717 E0.05479
G1 X-16.953 Y-14.491 E0.89022
G1 X-16.015 Y-14.491 E0.05479
G1 X-5.242 Y-3.717 E0.89022
G1 X-4.304 Y-3.717 E0.05479
G1 X-15.077 Y-14.491 E0.89022
G1 X-14.139 Y-14.491 E0.05479
G1 X-3.366 Y-3.717 E0.89022
G1 X-2.428 Y-3.717 E0.05479
G1 X-13.202 Y-14.491 E0.89022
G1 X-12.264 Y-14.491 E0.05479
G1 X-1.490 Y-3.717 E0.89022
G1 X-0.553 Y-3.717 E0.05479
G1 X-11.326 Y-14.491 E0.89022
G1 X-10.388 Y-14.491 E0.05479
G1 X0.385 Y-3.717 E0.89022
G1 X1.323 Y-3.717 E0.05479
G1 X-9.451 Y-14.491 E0.89022
G1 X-8.513 Y-14.491 E0.05479
G1 X2.261 Y-3.717 E0.89022
G1 X3.198 Y-3.717 E0.05479
G1 X-7.575 Y-14.491 E0.89022
G1 X-6.637 Y-14.491 E0.05479
G1 X4.136 Y-3.717 E0.89022
G1 X5.074 Y-3.717 E0.05479
G1 X-5.699 Y-14.491 E0.89022
G1 X-4.762 Y-14.491 E0.05479
G1 X6.012 Y-3.717 E0.89022
G1 X6.950 Y-3.717 E0.05479
G1 X-3.824 Y-14.491 E0.89022
G1 X-2.886 Y-14.491 E0.05479
G1 X7.887 Y-3.717 E0.89022
G1 X8.825 Y-3.717 E0.05479
G1 X-1.948 Y-14.491 E0.89022
G1 X-1.011 Y-14.491 E0.05479
G1 X9.763 Y-3.717 E0.89022
G1 X10.701 Y-3.717 E0.05479
G1 X-0.073 Y-14.491 E0.89022
G1 X0.865 Y-14.491 E0.05479
G1 X11.638 Y-3.717 E0.89022
G1 X12.576 Y-3.717 E0.05479
G1 X1.803 Y-14.491 E0.89022
G1 X2.741 Y-14.491 E0.05479
G1 X13.514 Y-3.717 E0.89022
G1 X14.452 Y-3.717 E0.05479
G1 X3.678 Y-14.491 E0.89022
G1 X4.616 Y-14.491 E0.05479
G1 X15.390 Y-3.717 E0.89022
G1 X16.327 Y-3.717 E0.05479
G1 X5.554 Y-14.491 E0.89022
G1 X6.492 Y-14.491 E0.05479
G1 X17.265 Y-3.717 E0.89022
