; generated by Slic3r 1.2.9 on 2019-12-11 at 06:06:10

; external perimeters extrusion width = 0.40mm
; perimeters extrusion width = 0.40mm
; infill extrusion width = 0.40mm
; solid infill extrusion width = 0.40mm
; top infill extrusion width = 0.40mm

M104 S220 ; set temperature
M83
T0
M116


M109 S220 ; wait for temperature to be reached
G21 ; set units to millimeters
G90 ; use absolute coordinates
M83 ; use relative distances for extrusion
G1 E-3.20000 F3000.00000
G1 Z0.400 F15000.000
G1 X-9.408 Y-5.979 F15000.000
G1 Z0.200 F15000.000
G1 E3.20000 F3000.00000
G1 X13.559 Y-42.114 E2.47893 F960.000
G1 X14.860 Y-43.425 E0.10694
G1 X17.200 Y-44.114 E0.14121
G1 X27.100 Y-44.114 E0.57319
G1 X28.904 Y-43.719 E0.10694
G1 X30.378 Y-42.605 E0.10694 F960.000
G1 X31.250 Y-40.977 E0.10694
G1 X31.414 Y-39.800 E0.06882
G1 X31.414 Y39.800 E4.60865
G1 X31.019 Y41.604 E0.10694
G1 X29.905 Y43.078 E0.10694
G1 X28.277 Y43.950 E0.10694
G1 X27.100 Y44.114 E0.06882
G1 X-27.100 Y44.114 E3.13805
G1 X-28.904 Y43.719 E0.10694
G1 X-30.378 Y42.605 E0.10694
G1 X-31.250 Y40.977 E0.10694
G1 X-31.414 Y39.800 E0.06882
G1 X-31.414 Y29.900 E0.57319
G1 X-30.741 Y27.586 E0.13954
G1 X-9.440 Y-5.929 E2.29917
G1 X-8.885 Y-5.576 F15000.000
G1 X14.114 Y-41.762 E2.48240 F960.000
G1 X15.333 Y-42.944 E0.09835
G1 X17.200 Y-43.457 E0.11210
G1 X27.100 Y-43.457 E0.57319
G1 X28.752 Y-43.063 E0.09835
G1 X30.048 Y-41.964 E0.09835 F960.000
G1 X30.757 Y-39.800 E0.13185
G1 X30.757 Y39.800 E4.60865
G1 X30.363 Y41.452 E0.09835
G1 X29.264 Y42.748 E0.09835
G1 X27.100 Y43.457 E0.13185
G1 X-27.100 Y43.457 E3.13805
G1 X-28.752 Y43.063 E0.09835
G1 X-30.048 Y41.964 E0.09835
G1 X-30.757 Y39.800 E0.13185
G1 X-30.757 Y29.900 E0.57319
G1 X-30.186 Y27.938 E0.11828
G1 X-8.917 Y-5.526 E2.29570
G1 E-3.20000 F3000.00000
G1 Z0.600 F15000.000
G1 X25.436 Y4.800 F15000.000
G1 Z0.200 F15000.000
G1 E3.20000 F3000.00000
G1 X25.436 Y38.136 E1.93005 F960.000
G1 X-25.436 Y38.136 E2.94535 F960.000
G1 X-25.436 Y31.564 E0.38048
G1 X18.864 Y31.564 E2.56486
G1 X18.864 Y-38.136 E4.03546
G1 X25.436 Y-38.136 E0.38048
G1 X25.436 Y4.740 E2.48242
G1 X26.093 Y4.740 F15000.000
G1 X26.093 Y38.793 E1.97157 F960.000
G1 X-26.093 Y38.793 E3.02143 F960.000
G1 X-26.093 Y30.907 E0.45657
G1 X18.207 Y30.907 E2.56486
G1 X18.207 Y-38.793 E4.03546
G1 X26.093 Y-38.793 E0.45657
G1 X26.093 Y4.680 E2.51699
G1 X26.750 Y4.680 F15000.000
G1 X26.750 Y39.450 E2.01308 F960.000
G1 X-26.750 Y39.450 E3.09752 F960.000
G1 X-26.750 Y30.250 E0.53266
G1 X17.550 Y30.250 E2.56486
G1 X17.550 Y-39.450 E4.03546
G1 X26.750 Y-39.450 E0.53266
G1 X26.750 Y4.620 E2.55156
G1 X26.404 Y4.880 F15000.000
G1 X19.263 Y31.381 F15000.000
G1 X25.037 Y37.155 E0.47421 F960.000
G1 X25.037 Y36.223 E0.05414
G1 X19.263 Y30.449 E0.47421
G1 X19.263 Y29.517 E0.05414
G1 X25.037 Y35.291 E0.47421
G1 X25.037 Y34.358 E0.05414
G1 X19.263 Y28.585 E0.47421
G1 X19.263 Y27.653 E0.05414
G1 X25.037 Y33.426 E0.47421
G1 X25.037 Y32.494 E0.05414
G1 X19.263 Y26.721 E0.47421
G1 X19.263 Y25.788 E0.05414
G1 X25.037 Y31.562 E0.47421
G1 X25.037 Y30.630 E0.05414
G1 X19.263 Y24.856 E0.47421
G1 X19.263 Y23.924 E0.05414
G1 X25.037 Y29.698 E0.47421
G1 X25.037 Y28.765 E0.05414
G1 X19.263 Y22.992 E0.47421
G1 X19.263 Y22.060 E0.05414
G1 X25.037 Y27.833 E0.47421
G1 X25.037 Y26.901 E0.05414
G1 X19.263 Y21.128 E0.47421
G1 X19.263 Y20.195 E0.05414
G1 X25.037 Y25.969 E0.47421
G1 X25.037 Y25.037 E0.05414
G1 X19.263 Y19.263 E0.47421
G1 X19.263 Y18.331 E0.05414
G1 X25.037 Y24.105 E0.47421
G1 X25.037 Y23.172 E0.05414
G1 X19.263 Y17.399 E0.47421
G1 X19.263 Y16.467 E0.05414
G1 X25.037 Y22.240 E0.47421
G1 X25.037 Y21.308 E0.05414
G1 X19.263 Y15.535 E0.47421
G1 X19.263 Y14.603 E0.05414
G1 X25.037 Y20.376 E0.47421
G1 X25.037 Y19.444 E0.05414
G1 X19.263 Y13.670 E0.47421
G1 X19.263 Y12.738 E0.05414
G1 X25.037 Y18.512 E0.47421
G1 X25.037 Y17.580 E0.05414
G1 X19.263 Y11.806 E0.47421
G1 X19.263 Y10.874 E0.05414
G1 X25.037 Y16.647 E0.47421
G1 X25.037 Y15.715 E0.05414
G1 X19.263 Y9.942 E0.47421
G1 X19.263 Y9.010 E0.05414
G1 X25.037 Y14.783 E0.47421
G1 X25.037 Y13.851 E0.05414
G1 X19.263 Y8.077 E0.47421
G1 X19.263 Y7.145 E0.05414
G1 X25.037 Y12.919 E0.47421
G1 X25.037 Y11.987 E0.05414
G1 X19.263 Y6.213 E0.47421
G1 X19.263 Y5.281 E0.05414
G1 X25.037 Y11.054 E0.47421
G1 X25.037 Y10.122 E0.05414
G1 X19.263 Y4.349 E0.47421
G1 X19.263 Y3.417 E0.05414
G1 X25.037 Y9.190 E0.47421
G1 X25.037 Y8.258 E0.05414
G1 X19.263 Y2.484 E0.47421
G1 X19.263 Y1.552 E0.05414
G1 X25.037 Y7.326 E0.47421
G1 X25.037 Y6.394 E0.05414
G1 X19.263 Y0.620 E0.47421
G1 X19.263 Y-0.312 E0.05414
G1 X25.037 Y5.461 E0.47421
G1 X25.037 Y4.529 E0.05414
G1 X19.263 Y-1.244 E0.47421
G1 X19.263 Y-2.176 E0.05414
G1 X25.037 Y3.597 E0.47421
G1 X25.037 Y2.665 E0.05414
G1 X19.263 Y-3.109 E0.47421
G1 X19.263 Y-4.041 E0.05414
G1 X25.037 Y1.733 E0.47421
G1 X25.037 Y0.801 E0.05414
G1 X19.263 Y-4.973 E0.47421
G1 X19.263 Y-5.905 E0.05414
G1 X25.037 Y-0.132 E0.47421
G1 X25.037 Y-1.064 E0.05414
G1 X19.263 Y-6.837 E0.47421
G1 X19.263 Y-7.769 E0.05414
G1 X25.037 Y-1.996 E0.47421
G1 X25.037 Y-2.928 E0.05414
G1 X19.263 Y-8.701 E0.47421
G1 X19.263 Y-9.634 E0.05414
G1 X25.037 Y-3.860 E0.47421
G1 X25.037 Y-4.792 E0.05414
G1 X19.263 Y-10.566 E0.47421
G1 X19.263 Y-11.498 E0.05414
G1 X25.037 Y-5.725 E0.47421
G1 X25.037 Y-6.657 E0.05414
G1 X19.263 Y-12.430 E0.47421
G1 X19.263 Y-13.362 E0.05414
G1 X25.037 Y-7.589 E0.47421
G1 X25.037 Y-8.521 E0.05414
G1 X19.263 Y-14.294 E0.47421
G1 X19.263 Y-15.227 E0.05414
G1 X25.037 Y-9.453 E0.47421
G1 X25.037 Y-10.385 E0.05414
G1 X19.263 Y-16.159 E0.47421
G1 X19.263 Y-17.091 E0.05414
G1 X25.037 Y-11.317 E0.47421
G1 X25.037 Y-12.250 E0.05414
G1 X19.263 Y-18.023 E0.47421
G1 X19.263 Y-18.955 E0.05414
G1 X25.037 Y-13.182 E0.47421
G1 X25.037 Y-14.114 E0.05414
G1 X19.263 Y-19.887 E0.47421
G1 X19.263 Y-20.820 E0.05414
G1 X25.037 Y-15.046 E0.47421
G1 X25.037 Y-15.978 E0.05414
G1 X19.263 Y-21.752 E0.47421
G1 X19.263 Y-22.684 E0.05414
G1 X25.037 Y-16.910 E0.47421
G1 X25.037 Y-17.843 E0.05414
G1 X19.263 Y-23.616 E0.47421
G1 X19.263 Y-24.548 E0.05414
G1 X25.037 Y-18.775 E0.47421
G1 X25.037 Y-19.707 E0.05414
G1 X19.263 Y-25.480 E0.47421
G1 X19.263 Y-26.413 E0.05414
G1 X25.037 Y-20.639 E0.47421
G1 X25.037 Y-21.571 E0.05414
G1 X19.263 Y-27.345 E0.47421
G1 X19.263 Y-28.277 E0.05414
G1 X25.037 Y-22.503 E0.47421
G1 X25.037 Y-23.436 E0.05414
G1 X19.263 Y-29.209 E0.47421
G1 X19.263 Y-30.141 E0.05414
G1 X25.037 Y-24.368 E0.47421
G1 X25.037 Y-25.300 E0.05414
G1 X19.263 Y-31.073 E0.47421
G1 X19.263 Y-32.005 E0.05414
G1 X25.037 Y-26.232 E0.47421
G1 X25.037 Y-27.164 E0.05414
G1 X19.263 Y-32.938 E0.47421
G1 X19.263 Y-33.870 E0.05414
G1 X25.037 Y-28.096 E0.47421
G1 X25.037 Y-29.029 E0.05414
G1 X19.263 Y-34.802 E0.47421
G1 X19.263 Y-35.734 E0.05414
G1 X25.037 Y-29.961 E0.47421
G1 X25.037 Y-30.893 E0.05414
G1 X19.263 Y-36.666 E0.47421
G1 X19.263 Y-37.598 E0.05414
G1 X25.037 Y-31.825 E0.47421
G1 X25.037 Y-32.757 E0.05414
G1 X20.057 Y-37.737 E0.40900
G1 X20.989 Y-37.737 E0.05414
G1 X25.037 Y-33.689 E0.33244
G1 X25.037 Y-34.621 E0.05414
G1 X21.921 Y-37.737 E0.25587
G1 X22.854 Y-37.737 E0.05414
G1 X25.037 Y-35.554 E0.17931
G1 X25.037 Y-36.486 E0.05414
G1 X23.786 Y-37.737 E0.10275
G1 X24.718 Y-37.737 E0.05414
G1 X25.037 Y-37.418 E0.02618
G1 X18.913 Y31.963 F15000.000
G1 X24.686 Y37.737 E0.47421 F960.000
G1 X23.754 Y37.737 E0.05414
G1 X17.981 Y31.963 E0.47421
G1 X17.049 Y31.963 E0.05414
G1 X22.822 Y37.737 E0.47421
G1 X21.890 Y37.737 E0.05414
G1 X16.116 Y31.963 E0.47421
G1 X15.184 Y31.963 E0.05414
G1 X20.958 Y37.737 E0.47421
G1 X20.026 Y37.737 E0.05414
G1 X14.252 Y31.963 E0.47421
G1 X13.320 Y31.963 E0.05414
G1 X19.093 Y37.737 E0.47421
G1 X18.161 Y37.737 E0.05414
G1 X12.388 Y31.963 E0.47421
G1 X11.456 Y31.963 E0.05414
G1 X17.229 Y37.737 E0.47421
G1 X16.297 Y37.737 E0.05414
G1 X10.524 Y31.963 E0.47421
G1 X9.591 Y31.963 E0.05414
G1 X15.365 Y37.737 E0.47421
G1 X14.433 Y37.737 E0.05414
G1 X8.659 Y31.963 E0.47421
G1 X7.727 Y31.963 E0.05414
G1 X13.500 Y37.737 E0.47421
G1 X12.568 Y37.737 E0.05414
G1 X6.795 Y31.963 E0.47421
G1 X5.863 Y31.963 E0.05414
G1 X11.636 Y37.737 E0.47421
G1 X10.704 Y37.737 E0.05414
G1 X4.931 Y31.963 E0.47421
G1 X3.998 Y31.963 E0.05414
G1 X9.772 Y37.737 E0.47421
G1 X8.840 Y37.737 E0.05414
G1 X3.066 Y31.963 E0.47421
G1 X2.134 Y31.963 E0.05414
G1 X7.908 Y37.737 E0.47421
G1 X6.975 Y37.737 E0.05414
G1 X1.202 Y31.963 E0.47421
G1 X0.270 Y31.963 E0.05414
G1 X6.043 Y37.737 E0.47421
G1 X5.111 Y37.737 E0.05414
G1 X-0.662 Y31.963 E0.47421
G1 X-1.595 Y31.963 E0.05414
G1 X4.179 Y37.737 E0.47421
G1 X3.247 Y37.737 E0.05414
G1 X-2.527 Y31.963 E0.47421
G1 X-3.459 Y31.963 E0.05414
G1 X2.315 Y37.737 E0.47421
G1 X1.382 Y37.737 E0.05414
G1 X-4.391 Y31.963 E0.47421
G1 X-5.323 Y31.963 E0.05414
G1 X0.450 Y37.737 E0.47421
G1 X-0.482 Y37.737 E0.05414
G1 X-6.255 Y31.963 E0.47421
G1 X-7.188 Y31.963 E0.05414
G1 X-1.414 Y37.737 E0.47421
G1 X-2.346 Y37.737 E0.05414
G1 X-8.120 Y31.963 E0.47421
G1 X-9.052 Y31.963 E0.05414
G1 X-3.278 Y37.737 E0.47421
G1 X-4.211 Y37.737 E0.05414
G1 X-9.984 Y31.963 E0.47421
G1 X-10.916 Y31.963 E0.05414
G1 X-5.143 Y37.737 E0.47421
G1 X-6.075 Y37.737 E0.05414
G1 X-11.848 Y31.963 E0.47421
G1 X-12.780 Y31.963 E0.05414
G1 X-7.007 Y37.737 E0.47421
G1 X-7.939 Y37.737 E0.05414
G1 X-13.713 Y31.963 E0.47421
G1 X-14.645 Y31.963 E0.05414
G1 X-8.871 Y37.737 E0.47421
G1 X-9.804 Y37.737 E0.05414
G1 X-15.577 Y31.963 E0.47421
G1 X-16.509 Y31.963 E0.05414
G1 X-10.736 Y37.737 E0.47421
G1 X-11.668 Y37.737 E0.05414
G1 X-17.441 Y31.963 E0.47421
G1 X-18.373 Y31.963 E0.05414
G1 X-12.600 Y37.737 E0.47421
G1 X-13.532 Y37.737 E0.05414
G1 X-19.306 Y31.963 E0.47421
G1 X-20.238 Y31.963 E0.05414
G1 X-14.464 Y37.737 E0.47421
G1 X-15.396 Y37.737 E0.05414
G1 X-21.170 Y31.963 E0.47421
G1 X-22.102 Y31.963 E0.05414
G1 X-16.329 Y37.737 E0.47421
G1 X-17.261 Y37.737 E0.05414
G1 X-23.034 Y31.963 E0.47421
G1 X-23.966 Y31.963 E0.05414
G1 X-18.193 Y37.737 E0.47421
G1 X-19.125 Y37.737 E0.05414
G1 X-24.899 Y31.963 E0.47421
G1 X-25.037 Y32.757 E0.04681
G1 X-20.057 Y37.737 E0.40899
G1 X-20.989 Y37.737 E0.05414
G1 X-25.037 Y33.689 E0.33243
G1 X-25.037 Y34.622 E0.05414
G1 X-21.922 Y37.737 E0.25586
G1 X-22.854 Y37.737 E0.05414
G1 X-25.037 Y35.554 E0.17930
G1 X-25.037 Y36.486 E0.05414
G1 X-23.786 Y37.737 E0.10274
G1 X-24.718 Y37.737 E0.05414
G1 X-25.037 Y37.418 E0.02617
M104 S230 ; set temperature
G1 E-3.20000 F3000.00000
G1 Z0.600 F15000.000
G1 X18.114 Y7.971 F15000.000
G1 Z0.400 F15000.000
G1 E3.20000 F3000.00000
G1 X18.114 Y-38.886 E1.47429 F4800.000
G1 X26.186 Y-38.886 E0.25396
G1 X26.186 Y38.886 E2.44697
G1 X-26.186 Y38.886 E1.64780 F4800.000
G1 X-26.186 Y30.814 E0.25396
G1 X18.114 Y30.814 E1.39383
G1 X18.114 Y8.031 E0.71683
G1 X17.757 Y8.031 F15000.000
G1 X17.757 Y-39.243 E1.48741 F4800.000
G1 X26.543 Y-39.243 E0.27643
G1 X26.543 Y39.243 E2.46944
G1 X-26.543 Y39.243 E1.67027 F4800.000
G1 X-26.543 Y30.457 E0.27643
G1 X17.757 Y30.457 E1.39383
G1 X17.757 Y8.091 E0.70371
G1 X17.400 Y8.091 F15000.000
G1 X17.400 Y-39.600 E1.50054 F4800.000
G1 X26.900 Y-39.600 E0.29890
G1 X26.900 Y39.600 E2.49191
G1 X-26.900 Y39.600 E1.69274 F4800.000
G1 X-26.900 Y30.100 E0.29890
G1 X17.400 Y30.100 E1.39383
G1 X17.400 Y8.151 E0.69058
G1 X17.746 Y7.891 F15000.000
G1 X17.733 Y31.022 F15000.000
G1 X10.077 Y38.678 E0.34187 F4800.000
G1 X9.570 Y38.678 E0.01600
G1 X17.226 Y31.022 E0.34187
G1 X16.720 Y31.022 E0.01600
G1 X9.063 Y38.678 E0.34187
G1 X8.557 Y38.678 E0.01600
G1 X16.213 Y31.022 E0.34187
G1 X15.706 Y31.022 E0.01600
G1 X8.050 Y38.678 E0.34187
G1 X7.543 Y38.678 E0.01600
G1 X15.199 Y31.022 E0.34187
G1 X14.693 Y31.022 E0.01600
G1 X7.036 Y38.678 E0.34187
G1 X6.530 Y38.678 E0.01600
G1 X14.186 Y31.022 E0.34187
G1 X13.679 Y31.022 E0.01600
G1 X6.023 Y38.678 E0.34187
G1 X5.516 Y38.678 E0.01600
G1 X13.172 Y31.022 E0.34187
G1 X12.665 Y31.022 E0.01600
G1 X5.009 Y38.678 E0.34187
G1 X4.503 Y38.678 E0.01600
G1 X12.159 Y31.022 E0.34187
G1 X11.652 Y31.022 E0.01600
G1 X3.996 Y38.678 E0.34187
G1 X3.489 Y38.678 E0.01600
G1 X11.145 Y31.022 E0.34187
G1 X10.638 Y31.022 E0.01600
G1 X2.982 Y38.678 E0.34187
G1 X2.475 Y38.678 E0.01600
G1 X10.132 Y31.022 E0.34187
G1 X9.625 Y31.022 E0.01600
G1 X1.969 Y38.678 E0.34187
G1 X1.462 Y38.678 E0.01600
G1 X9.118 Y31.022 E0.34187
G1 X8.611 Y31.022 E0.01600
G1 X0.955 Y38.678 E0.34187
G1 X0.448 Y38.678 E0.01600
G1 X8.105 Y31.022 E0.34187
G1 X7.598 Y31.022 E0.01600
G1 X-0.058 Y38.678 E0.34187
G1 X-0.565 Y38.678 E0.01600
G1 X7.091 Y31.022 E0.34187
G1 X6.584 Y31.022 E0.01600
G1 X-1.072 Y38.678 E0.34187
G1 X-1.579 Y38.678 E0.01600
G1 X6.078 Y31.022 E0.34187
G1 X5.571 Y31.022 E0.01600
G1 X-2.085 Y38.678 E0.34187
G1 X-2.592 Y38.678 E0.01600
G1 X5.064 Y31.022 E0.34187
G1 X4.557 Y31.022 E0.01600
G1 X-3.099 Y38.678 E0.34187
G1 X-3.606 Y38.678 E0.01600
G1 X4.050 Y31.022 E0.34187
G1 X3.544 Y31.022 E0.01600
G1 X-4.112 Y38.678 E0.34187
G1 X-4.619 Y38.678 E0.01600
G1 X3.037 Y31.022 E0.34187
G1 X2.530 Y31.022 E0.01600
G1 X-5.126 Y38.678 E0.34187
G1 X-5.633 Y38.678 E0.01600
G1 X2.023 Y31.022 E0.34187
G1 X1.517 Y31.022 E0.01600
G1 X-6.140 Y38.678 E0.34187
G1 X-6.646 Y38.678 E0.01600
G1 X1.010 Y31.022 E0.34187
G1 X0.503 Y31.022 E0.01600
G1 X-7.153 Y38.678 E0.34187
G1 X-7.660 Y38.678 E0.01600
G1 X-0.004 Y31.022 E0.34187
G1 X-0.510 Y31.022 E0.01600
G1 X-8.167 Y38.678 E0.34187
G1 X-8.673 Y38.678 E0.01600
G1 X-1.017 Y31.022 E0.34187
G1 X-1.524 Y31.022 E0.01600
G1 X-9.180 Y38.678 E0.34187
G1 X-9.687 Y38.678 E0.01600
G1 X-2.031 Y31.022 E0.34187
G1 X-2.537 Y31.022 E0.01600
G1 X-10.194 Y38.678 E0.34187
G1 X-10.700 Y38.678 E0.01600
G1 X-3.044 Y31.022 E0.34187
G1 X-3.551 Y31.022 E0.01600
G1 X-11.207 Y38.678 E0.34187
G1 X-11.714 Y38.678 E0.01600
G1 X-4.058 Y31.022 E0.34187
G1 X-4.564 Y31.022 E0.01600
G1 X-12.221 Y38.678 E0.34187
G1 X-12.727 Y38.678 E0.01600
G1 X-5.071 Y31.022 E0.34187
G1 X-5.578 Y31.022 E0.01600
G1 X-13.234 Y38.678 E0.34187
G1 X-13.741 Y38.678 E0.01600
G1 X-6.085 Y31.022 E0.34187
G1 X-6.592 Y31.022 E0.01600
G1 X-14.248 Y38.678 E0.34187
G1 X-14.754 Y38.678 E0.01600
G1 X-7.098 Y31.022 E0.34187
G1 X-7.605 Y31.022 E0.01600
G1 X-15.261 Y38.678 E0.34187
G1 X-15.768 Y38.678 E0.01600
G1 X-8.112 Y31.022 E0.34187
G1 X-8.619 Y31.022 E0.01600
G1 X-16.275 Y38.678 E0.34187
G1 X-16.782 Y38.678 E0.01600
G1 X-9.125 Y31.022 E0.34187
G1 X-9.632 Y31.022 E0.01600
G1 X-17.288 Y38.678 E0.34187
G1 X-17.795 Y38.678 E0.01600
G1 X-10.139 Y31.022 E0.34187
G1 X-10.646 Y31.022 E0.01600
G1 X-18.302 Y38.678 E0.34187
G1 X-18.809 Y38.678 E0.01600
G1 X-11.152 Y31.022 E0.34187
G1 X-11.659 Y31.022 E0.01600
G1 X-19.315 Y38.678 E0.34187
G1 X-19.822 Y38.678 E0.01600
G1 X-12.166 Y31.022 E0.34187
G1 X-12.673 Y31.022 E0.01600
G1 X-20.329 Y38.678 E0.34187
G1 X-20.836 Y38.678 E0.01600
G1 X-13.179 Y31.022 E0.34187
G1 X-13.686 Y31.022 E0.01600
G1 X-21.342 Y38.678 E0.34187
G1 X-21.849 Y38.678 E0.01600
G1 X-14.193 Y31.022 E0.34187
G1 X-14.700 Y31.022 E0.01600
G1 X-22.356 Y38.678 E0.34187
G1 X-22.863 Y38.678 E0.01600
G1 X-15.207 Y31.022 E0.34187
G1 X-15.713 Y31.022 E0.01600
G1 X-23.369 Y38.678 E0.34187
G1 X-23.876 Y38.678 E0.01600
G1 X-16.220 Y31.022 E0.34187
G1 X-16.727 Y31.022 E0.01600
G1 X-24.383 Y38.678 E0.34187
G1 X-24.890 Y38.678 E0.01600
G1 X-17.234 Y31.022 E0.34187
G1 X-17.740 Y31.022 E0.01600
G1 X-25.397 Y38.678 E0.34187
G1 X-25.903 Y38.678 E0.01600
G1 X-18.247 Y31.022 E0.34187
G1 X-18.754 Y31.022 E0.01600
G1 X-25.978 Y38.246 E0.32258
G1 X-25.978 Y37.739 E0.01600
G1 X-19.261 Y31.022 E0.29995
G1 X-19.767 Y31.022 E0.01600
G1 X-25.978 Y37.233 E0.27732
G1 X-25.978 Y36.726 E0.01600
G1 X-20.274 Y31.022 E0.25470
G1 X-20.781 Y31.022 E0.01600
G1 X-25.978 Y36.219 E0.23207
G1 X-25.978 Y35.712 E0.01600
G1 X-21.288 Y31.022 E0.20944
G1 X-21.794 Y31.022 E0.01600
G1 X-25.978 Y35.206 E0.18681
G1 X-25.978 Y34.699 E0.01600
G1 X-22.301 Y31.022 E0.16418
G1 X-22.808 Y31.022 E0.01600
G1 X-25.978 Y34.192 E0.14155
G1 X-25.978 Y33.685 E0.01600
G1 X-23.315 Y31.022 E0.11893
G1 X-23.822 Y31.022 E0.01600
G1 X-25.978 Y33.178 E0.09630
G1 X-25.978 Y32.672 E0.01600
G1 X-24.328 Y31.022 E0.07367
G1 X-24.835 Y31.022 E0.01600
G1 X-25.978 Y32.165 E0.05104
G1 X-25.978 Y31.658 E0.01600
