; generated by Slic3r 1.2.9 on 2019-12-11 at 06:05:13

; external perimeters extrusion width = 0.40mm
; perimeters extrusion width = 0.40mm
; infill extrusion width = 0.40mm
; solid infill extrusion width = 0.40mm
; top infill extrusion width = 0.40mm

M104 S220 ; set temperature
M83
T0
M116


M109 S220 ; wait for temperature to be reached
G21 ; set units to millimeters
G90 ; use absolute coordinates
M83 ; use relative distances for extrusion
G1 E-3.20000 F3000.00000
G1 Z0.400 F15000.000
G1 X9.408 Y-5.979 F15000.000
G1 Z0.200 F15000.000
G1 E3.20000 F3000.00000
G1 X30.741 Y27.586 E2.30264 F960.000
G1 X31.414 Y29.900 E0.13954
G1 X31.414 Y39.800 E0.57319
G1 X31.019 Y41.604 E0.10694
G1 X29.905 Y43.078 E0.10694
G1 X28.277 Y43.950 E0.10694
G1 X27.100 Y44.114 E0.06882
G1 X-27.100 Y44.114 E3.13805
G1 X-28.904 Y43.719 E0.10694
G1 X-30.378 Y42.605 E0.10694
G1 X-31.250 Y40.977 E0.10694
G1 X-31.414 Y39.800 E0.06882
G1 X-31.414 Y-39.800 E4.60865
G1 X-31.019 Y-41.604 E0.10694
G1 X-29.905 Y-43.078 E0.10694
G1 X-28.277 Y-43.950 E0.10694
G1 X-27.100 Y-44.114 E0.06882
G1 X-17.200 Y-44.114 E0.57319
G1 X-15.396 Y-43.719 E0.10694
G1 X-13.559 Y-42.114 E0.14121 F960.000
G1 X9.375 Y-6.030 E2.47546
G1 X8.821 Y-5.677 F15000.000
G1 X30.186 Y27.938 E2.30612 F960.000
G1 X30.757 Y29.900 E0.11828
G1 X30.757 Y39.800 E0.57319
G1 X30.363 Y41.452 E0.09835
G1 X29.264 Y42.748 E0.09835
G1 X27.100 Y43.457 E0.13185
G1 X-27.100 Y43.457 E3.13805
G1 X-28.752 Y43.063 E0.09835
G1 X-30.048 Y41.964 E0.09835
G1 X-30.757 Y39.800 E0.13185
G1 X-30.757 Y-39.800 E4.60865
G1 X-30.363 Y-41.452 E0.09835
G1 X-29.264 Y-42.748 E0.09835
G1 X-27.100 Y-43.457 E0.13185
G1 X-17.200 Y-43.457 E0.57319
G1 X-15.548 Y-43.063 E0.09835
G1 X-14.114 Y-41.762 E0.11210 F960.000
G1 X8.789 Y-5.728 E2.47198
G1 E-3.20000 F3000.00000
G1 Z0.600 F15000.000
G1 X19.622 Y31.564 F15000.000
G1 Z0.200 F15000.000
G1 E3.20000 F3000.00000
G1 X25.436 Y31.564 E0.33661 F960.000
G1 X25.436 Y38.136 E0.38048
G1 X-25.436 Y38.136 E2.94535
G1 X-25.436 Y-38.136 E4.41594
G1 X-18.864 Y-38.136 E0.38048
G1 X-18.864 Y31.564 E4.03546
G1 X19.562 Y31.564 E2.22478 F960.000
G1 X19.562 Y30.907 F15000.000
G1 X26.093 Y30.907 E0.37813 F960.000
G1 X26.093 Y38.793 E0.45657
G1 X-26.093 Y38.793 E3.02143
G1 X-26.093 Y-38.793 E4.49203
G1 X-18.207 Y-38.793 E0.45657
G1 X-18.207 Y30.907 E4.03546
G1 X19.502 Y30.907 E2.18326 F960.000
G1 X19.502 Y30.250 F15000.000
G1 X26.750 Y30.250 E0.41964 F960.000
G1 X26.750 Y39.450 E0.53266
G1 X-26.750 Y39.450 E3.09752
G1 X-26.750 Y-39.450 E4.56812
G1 X-17.550 Y-39.450 E0.53266
G1 X-17.550 Y30.250 E4.03546
G1 X19.442 Y30.250 E2.14174 F960.000
G1 X19.702 Y30.596 F15000.000
G1 X25.037 Y33.127 F15000.000
G1 X23.873 Y31.963 E0.09611 F960.000
G1 X22.936 Y31.963 E0.05474
G1 X25.037 Y34.064 E0.17353
G1 X25.037 Y35.002 E0.05474
G1 X21.998 Y31.963 E0.25094
G1 X21.061 Y31.963 E0.05474
G1 X25.037 Y35.939 E0.32835
G1 X25.037 Y36.876 E0.05474
G1 X20.124 Y31.963 E0.40577
G1 X19.186 Y31.963 E0.05474
G1 X24.960 Y37.737 E0.47683
G1 X24.023 Y37.737 E0.05474
G1 X18.249 Y31.963 E0.47683
G1 X17.312 Y31.963 E0.05474
G1 X23.085 Y37.737 E0.47683
G1 X22.148 Y37.737 E0.05474
G1 X16.374 Y31.963 E0.47683
G1 X15.437 Y31.963 E0.05474
G1 X21.211 Y37.737 E0.47683
G1 X20.273 Y37.737 E0.05474
G1 X14.500 Y31.963 E0.47683
G1 X13.563 Y31.963 E0.05474
G1 X19.336 Y37.737 E0.47683
G1 X18.399 Y37.737 E0.05474
G1 X12.625 Y31.963 E0.47683
G1 X11.688 Y31.963 E0.05474
G1 X17.461 Y37.737 E0.47683
G1 X16.524 Y37.737 E0.05474
G1 X10.751 Y31.963 E0.47683
G1 X9.813 Y31.963 E0.05474
G1 X15.587 Y37.737 E0.47683
G1 X14.649 Y37.737 E0.05474
G1 X8.876 Y31.963 E0.47683
G1 X7.939 Y31.963 E0.05474
G1 X13.712 Y37.737 E0.47683
G1 X12.775 Y37.737 E0.05474
G1 X7.001 Y31.963 E0.47683
G1 X6.064 Y31.963 E0.05474
G1 X11.837 Y37.737 E0.47683
G1 X10.900 Y37.737 E0.05474
G1 X5.127 Y31.963 E0.47683
G1 X4.189 Y31.963 E0.05474
G1 X9.963 Y37.737 E0.47683
G1 X9.025 Y37.737 E0.05474
G1 X3.252 Y31.963 E0.47683
G1 X2.315 Y31.963 E0.05474
G1 X8.088 Y37.737 E0.47683
G1 X7.151 Y37.737 E0.05474
G1 X1.377 Y31.963 E0.47683
G1 X0.440 Y31.963 E0.05474
G1 X6.213 Y37.737 E0.47683
G1 X5.276 Y37.737 E0.05474
G1 X-0.497 Y31.963 E0.47683
G1 X-1.435 Y31.963 E0.05474
G1 X4.339 Y37.737 E0.47683
G1 X3.402 Y37.737 E0.05474
G1 X-2.372 Y31.963 E0.47683
G1 X-3.309 Y31.963 E0.05474
G1 X2.464 Y37.737 E0.47683
G1 X1.527 Y37.737 E0.05474
G1 X-4.247 Y31.963 E0.47683
G1 X-5.184 Y31.963 E0.05474
G1 X0.590 Y37.737 E0.47683
G1 X-0.348 Y37.737 E0.05474
G1 X-6.121 Y31.963 E0.47683
G1 X-7.059 Y31.963 E0.05474
G1 X-1.285 Y37.737 E0.47683
G1 X-2.222 Y37.737 E0.05474
G1 X-7.996 Y31.963 E0.47683
G1 X-8.933 Y31.963 E0.05474
G1 X-3.160 Y37.737 E0.47683
G1 X-4.097 Y37.737 E0.05474
G1 X-9.870 Y31.963 E0.47683
G1 X-10.808 Y31.963 E0.05474
G1 X-5.034 Y37.737 E0.47683
G1 X-5.972 Y37.737 E0.05474
G1 X-11.745 Y31.963 E0.47683
G1 X-12.682 Y31.963 E0.05474
G1 X-6.909 Y37.737 E0.47683
G1 X-7.846 Y37.737 E0.05474
G1 X-13.620 Y31.963 E0.47683
G1 X-14.557 Y31.963 E0.05474
G1 X-8.784 Y37.737 E0.47683
G1 X-9.721 Y37.737 E0.05474
G1 X-15.494 Y31.963 E0.47683
G1 X-16.432 Y31.963 E0.05474
G1 X-10.658 Y37.737 E0.47683
G1 X-11.596 Y37.737 E0.05474
G1 X-17.369 Y31.963 E0.47683
G1 X-18.306 Y31.963 E0.05474
G1 X-12.533 Y37.737 E0.47683
G1 X-13.470 Y37.737 E0.05474
G1 X-19.244 Y31.963 E0.47683
G1 X-25.037 Y37.418 F15000.000
G1 X-24.718 Y37.737 E0.02632 F960.000
G1 X-23.781 Y37.737 E0.05474
G1 X-25.037 Y36.481 E0.10373
G1 X-25.037 Y35.543 E0.05474
G1 X-22.843 Y37.737 E0.18115
G1 X-21.906 Y37.737 E0.05474
G1 X-25.037 Y34.606 E0.25856
G1 X-25.037 Y33.669 E0.05474
G1 X-20.969 Y37.737 E0.33598
G1 X-20.031 Y37.737 E0.05474
G1 X-25.037 Y32.731 E0.41339
G1 X-25.037 Y31.794 E0.05474
G1 X-19.094 Y37.737 E0.49080
G1 X-18.157 Y37.737 E0.05474
G1 X-25.037 Y30.857 E0.56822
G1 X-25.037 Y29.919 E0.05474
G1 X-17.219 Y37.737 E0.64563
G1 X-16.282 Y37.737 E0.05474
G1 X-25.037 Y28.982 E0.72304
G1 X-25.037 Y28.045 E0.05474
G1 X-15.345 Y37.737 E0.80046
G1 X-14.408 Y37.737 E0.05474
G1 X-25.037 Y27.108 E0.87787
G1 X-25.037 Y26.170 E0.05474
G1 X-19.263 Y31.944 E0.47683
G1 X-19.263 Y31.006 E0.05474
G1 X-25.037 Y25.233 E0.47683
G1 X-25.037 Y24.296 E0.05474
G1 X-19.263 Y30.069 E0.47683
G1 X-19.263 Y29.132 E0.05474
G1 X-25.037 Y23.358 E0.47683
G1 X-25.037 Y22.421 E0.05474
G1 X-19.263 Y28.194 E0.47683
G1 X-19.263 Y27.257 E0.05474
G1 X-25.037 Y21.484 E0.47683
G1 X-25.037 Y20.546 E0.05474
G1 X-19.263 Y26.320 E0.47683
G1 X-19.263 Y25.382 E0.05474
G1 X-25.037 Y19.609 E0.47683
G1 X-25.037 Y18.672 E0.05474
G1 X-19.263 Y24.445 E0.47683
G1 X-19.263 Y23.508 E0.05474
G1 X-25.037 Y17.734 E0.47683
G1 X-25.037 Y16.797 E0.05474
G1 X-19.263 Y22.570 E0.47683
G1 X-19.263 Y21.633 E0.05474
G1 X-25.037 Y15.860 E0.47683
G1 X-25.037 Y14.922 E0.05474
G1 X-19.263 Y20.696 E0.47683
G1 X-19.263 Y19.759 E0.05474
G1 X-25.037 Y13.985 E0.47683
G1 X-25.037 Y13.048 E0.05474
G1 X-19.263 Y18.821 E0.47683
G1 X-19.263 Y17.884 E0.05474
G1 X-25.037 Y12.110 E0.47683
G1 X-25.037 Y11.173 E0.05474
G1 X-19.263 Y16.947 E0.47683
G1 X-19.263 Y16.009 E0.05474
G1 X-25.037 Y10.236 E0.47683
G1 X-25.037 Y9.298 E0.05474
G1 X-19.263 Y15.072 E0.47683
G1 X-19.263 Y14.135 E0.05474
G1 X-25.037 Y8.361 E0.47683
G1 X-25.037 Y7.424 E0.05474
G1 X-19.263 Y13.197 E0.47683
G1 X-19.263 Y12.260 E0.05474
G1 X-25.037 Y6.486 E0.47683
G1 X-25.037 Y5.549 E0.05474
G1 X-19.263 Y11.323 E0.47683
G1 X-19.263 Y10.385 E0.05474
G1 X-25.037 Y4.612 E0.47683
G1 X-25.037 Y3.675 E0.05474
G1 X-19.263 Y9.448 E0.47683
G1 X-19.263 Y8.511 E0.05474
G1 X-25.037 Y2.737 E0.47683
G1 X-25.037 Y1.800 E0.05474
G1 X-19.263 Y7.573 E0.47683
G1 X-19.263 Y6.636 E0.05474
G1 X-25.037 Y0.863 E0.47683
G1 X-25.037 Y-0.075 E0.05474
G1 X-19.263 Y5.699 E0.47683
G1 X-19.263 Y4.761 E0.05474
G1 X-25.037 Y-1.012 E0.47683
G1 X-25.037 Y-1.949 E0.05474
G1 X-19.263 Y3.824 E0.47683
G1 X-19.263 Y2.887 E0.05474
G1 X-25.037 Y-2.887 E0.47683
G1 X-25.037 Y-3.824 E0.05474
G1 X-19.263 Y1.949 E0.47683
G1 X-19.263 Y1.012 E0.05474
G1 X-25.037 Y-4.761 E0.47683
G1 X-25.037 Y-5.699 E0.05474
G1 X-19.263 Y0.075 E0.47683
G1 X-19.263 Y-0.863 E0.05474
G1 X-25.037 Y-6.636 E0.47683
G1 X-25.037 Y-7.573 E0.05474
G1 X-19.263 Y-1.800 E0.47683
G1 X-19.263 Y-2.737 E0.05474
G1 X-25.037 Y-8.511 E0.47683
G1 X-25.037 Y-9.448 E0.05474
G1 X-19.263 Y-3.674 E0.47683
G1 X-19.263 Y-4.612 E0.05474
G1 X-25.037 Y-10.385 E0.47683
G1 X-25.037 Y-11.323 E0.05474
G1 X-19.263 Y-5.549 E0.47683
G1 X-19.263 Y-6.486 E0.05474
G1 X-25.037 Y-12.260 E0.47683
G1 X-25.037 Y-13.197 E0.05474
G1 X-19.263 Y-7.424 E0.47683
G1 X-19.263 Y-8.361 E0.05474
G1 X-25.037 Y-14.135 E0.47683
G1 X-25.037 Y-15.072 E0.05474
G1 X-19.263 Y-9.298 E0.47683
G1 X-19.263 Y-10.236 E0.05474
G1 X-25.037 Y-16.009 E0.47683
G1 X-25.037 Y-16.946 E0.05474
G1 X-19.263 Y-11.173 E0.47683
G1 X-19.263 Y-12.110 E0.05474
G1 X-25.037 Y-17.884 E0.47683
G1 X-25.037 Y-18.821 E0.05474
G1 X-19.263 Y-13.048 E0.47683
G1 X-19.263 Y-13.985 E0.05474
G1 X-25.037 Y-19.758 E0.47683
G1 X-25.037 Y-20.696 E0.05474
G1 X-19.263 Y-14.922 E0.47683
G1 X-19.263 Y-15.860 E0.05474
G1 X-25.037 Y-21.633 E0.47683
G1 X-25.037 Y-22.570 E0.05474
G1 X-19.263 Y-16.797 E0.47683
G1 X-19.263 Y-17.734 E0.05474
G1 X-25.037 Y-23.508 E0.47683
G1 X-25.037 Y-24.445 E0.05474
G1 X-19.263 Y-18.672 E0.47683
G1 X-19.263 Y-19.609 E0.05474
G1 X-25.037 Y-25.382 E0.47683
G1 X-25.037 Y-26.320 E0.05474
G1 X-19.263 Y-20.546 E0.47683
G1 X-19.263 Y-21.484 E0.05474
G1 X-25.037 Y-27.257 E0.47683
G1 X-25.037 Y-28.194 E0.05474
G1 X-19.263 Y-22.421 E0.47683
G1 X-19.263 Y-23.358 E0.05474
G1 X-25.037 Y-29.132 E0.47683
G1 X-25.037 Y-30.069 E0.05474
G1 X-19.263 Y-24.295 E0.47683
G1 X-19.263 Y-25.233 E0.05474
G1 X-25.037 Y-31.006 E0.47683
G1 X-25.037 Y-31.944 E0.05474
G1 X-19.263 Y-26.170 E0.47683
G1 X-19.263 Y-27.107 E0.05474
G1 X-25.037 Y-32.881 E0.47683
G1 X-25.037 Y-33.818 E0.05474
G1 X-19.263 Y-28.045 E0.47683
G1 X-19.263 Y-28.982 E0.05474
G1 X-25.037 Y-34.756 E0.47683
G1 X-25.037 Y-35.693 E0.05474
G1 X-19.263 Y-29.919 E0.47683
G1 X-19.263 Y-30.857 E0.05474
G1 X-25.037 Y-36.630 E0.47683
G1 X-25.037 Y-37.568 E0.05474
G1 X-19.263 Y-31.794 E0.47683
G1 X-19.263 Y-32.731 E0.05474
G1 X-24.269 Y-37.737 E0.41340
G1 X-23.331 Y-37.737 E0.05474
G1 X-19.263 Y-33.669 E0.33598
G1 X-19.263 Y-34.606 E0.05474
G1 X-22.394 Y-37.737 E0.25857
G1 X-21.457 Y-37.737 E0.05474
G1 X-19.263 Y-35.543 E0.18116
G1 X-19.263 Y-36.481 E0.05474
G1 X-20.519 Y-37.737 E0.10374
G1 X-19.582 Y-37.737 E0.05474
G1 X-19.263 Y-37.418 E0.02633
M104 S230 ; set temperature
G1 E-3.20000 F3000.00000
G1 Z0.600 F15000.000
G1 X-26.186 Y-5.494 F15000.000
G1 Z0.400 F15000.000
G1 E3.20000 F3000.00000
G1 X-26.186 Y-38.886 E1.05064 F4800.000
G1 X-18.114 Y-38.886 E0.25396
G1 X-18.114 Y30.814 E2.19301
G1 X26.186 Y30.814 E1.39383 F4800.000
G1 X26.186 Y38.886 E0.25396
G1 X-26.186 Y38.886 E1.64780
G1 X-26.186 Y-5.434 E1.39445
G1 X-26.543 Y-5.434 F15000.000
G1 X-26.543 Y-39.243 E1.06376 F4800.000
G1 X-17.757 Y-39.243 E0.27643
G1 X-17.757 Y30.457 E2.19301
G1 X26.543 Y30.457 E1.39383 F4800.000
G1 X26.543 Y39.243 E0.27643
G1 X-26.543 Y39.243 E1.67027
G1 X-26.543 Y-5.374 E1.40379
G1 X-26.900 Y-5.374 F15000.000
G1 X-26.900 Y-39.600 E1.07688 F4800.000
G1 X-17.400 Y-39.600 E0.29890
G1 X-17.400 Y30.100 E2.19301
G1 X26.900 Y30.100 E1.39383 F4800.000
G1 X26.900 Y39.600 E0.29890
G1 X-26.900 Y39.600 E1.69274
G1 X-26.900 Y-5.314 E1.41314
G1 X-26.554 Y-5.574 F15000.000
G1 X-25.281 Y-38.678 F15000.000
G1 X-25.978 Y-37.981 E0.03105 F4800.000
G1 X-25.978 Y-37.476 E0.01593
G1 X-24.776 Y-38.678 E0.05357
G1 X-24.270 Y-38.678 E0.01593
G1 X-25.978 Y-36.970 E0.07610
G1 X-25.978 Y-36.464 E0.01593
G1 X-23.764 Y-38.678 E0.09862
G1 X-23.259 Y-38.678 E0.01593
G1 X-25.978 Y-35.959 E0.12115
G1 X-25.978 Y-35.453 E0.01593
G1 X-22.753 Y-38.678 E0.14367
G1 X-22.248 Y-38.678 E0.01593
G1 X-25.978 Y-34.948 E0.16620
G1 X-25.978 Y-34.442 E0.01593
G1 X-21.742 Y-38.678 E0.18872
G1 X-21.236 Y-38.678 E0.01593
G1 X-25.978 Y-33.936 E0.21125
G1 X-25.978 Y-33.431 E0.01593
G1 X-20.731 Y-38.678 E0.23377
G1 X-20.225 Y-38.678 E0.01593
G1 X-25.978 Y-32.925 E0.25630
G1 X-25.978 Y-32.420 E0.01593
G1 X-19.720 Y-38.678 E0.27882
G1 X-19.214 Y-38.678 E0.01593
G1 X-25.978 Y-31.914 E0.30135
G1 X-25.978 Y-31.408 E0.01593
G1 X-18.708 Y-38.678 E0.32387
G1 X-18.322 Y-38.559 E0.01274
G1 X-25.978 Y-30.903 E0.34109
G1 X-25.978 Y-30.397 E0.01593
G1 X-18.322 Y-38.053 E0.34109
G1 X-18.322 Y-37.548 E0.01593
G1 X-25.978 Y-29.892 E0.34109
G1 X-25.978 Y-29.386 E0.01593
G1 X-18.322 Y-37.042 E0.34109
G1 X-18.322 Y-36.536 E0.01593
G1 X-25.978 Y-28.880 E0.34109
G1 X-25.978 Y-28.375 E0.01593
G1 X-18.322 Y-36.031 E0.34109
G1 X-18.322 Y-35.525 E0.01593
G1 X-25.978 Y-27.869 E0.34109
G1 X-25.978 Y-27.363 E0.01593
G1 X-18.322 Y-35.020 E0.34109
G1 X-18.322 Y-34.514 E0.01593
G1 X-25.978 Y-26.858 E0.34109
G1 X-25.978 Y-26.352 E0.01593
G1 X-18.322 Y-34.008 E0.34109
G1 X-18.322 Y-33.503 E0.01593
G1 X-25.978 Y-25.847 E0.34109
G1 X-25.978 Y-25.341 E0.01593
G1 X-18.322 Y-32.997 E0.34109
G1 X-18.322 Y-32.492 E0.01593
G1 X-25.978 Y-24.835 E0.34109
G1 X-25.978 Y-24.330 E0.01593
G1 X-18.322 Y-31.986 E0.34109
G1 X-18.322 Y-31.480 E0.01593
G1 X-25.978 Y-23.824 E0.34109
G1 X-25.978 Y-23.319 E0.01593
G1 X-18.322 Y-30.975 E0.34109
G1 X-18.322 Y-30.469 E0.01593
G1 X-25.978 Y-22.813 E0.34109
G1 X-25.978 Y-22.307 E0.01593
G1 X-18.322 Y-29.964 E0.34109
G1 X-18.322 Y-29.458 E0.01593
G1 X-25.978 Y-21.802 E0.34109
G1 X-25.978 Y-21.296 E0.01593
G1 X-18.322 Y-28.952 E0.34109
G1 X-18.322 Y-28.447 E0.01593
G1 X-25.978 Y-20.791 E0.34109
G1 X-25.978 Y-20.285 E0.01593
G1 X-18.322 Y-27.941 E0.34109
G1 X-18.322 Y-27.436 E0.01593
G1 X-25.978 Y-19.779 E0.34109
G1 X-25.978 Y-19.274 E0.01593
G1 X-18.322 Y-26.930 E0.34109
G1 X-18.322 Y-26.424 E0.01593
G1 X-25.978 Y-18.768 E0.34109
G1 X-25.978 Y-18.263 E0.01593
G1 X-18.322 Y-25.919 E0.34109
G1 X-18.322 Y-25.413 E0.01593
G1 X-25.978 Y-17.757 E0.34109
G1 X-25.978 Y-17.251 E0.01593
G1 X-18.322 Y-24.908 E0.34109
G1 X-18.322 Y-24.402 E0.01593
G1 X-25.978 Y-16.746 E0.34109
G1 X-25.978 Y-16.240 E0.01593
G1 X-18.322 Y-23.896 E0.34109
G1 X-18.322 Y-23.391 E0.01593
G1 X-25.978 Y-15.735 E0.34109
G1 X-25.978 Y-15.229 E0.01593
G1 X-18.322 Y-22.885 E0.34109
G1 X-18.322 Y-22.380 E0.01593
G1 X-25.978 Y-14.723 E0.34109
G1 X-25.978 Y-14.218 E0.01593
G1 X-18.322 Y-21.874 E0.34109
G1 X-18.322 Y-21.368 E0.01593
G1 X-25.978 Y-13.712 E0.34109
G1 X-25.978 Y-13.207 E0.01593
G1 X-18.322 Y-20.863 E0.34109
G1 X-18.322 Y-20.357 E0.01593
G1 X-25.978 Y-12.701 E0.34109
G1 X-25.978 Y-12.195 E0.01593
G1 X-18.322 Y-19.851 E0.34109
G1 X-18.322 Y-19.346 E0.01593
G1 X-25.978 Y-11.690 E0.34109
G1 X-25.978 Y-11.184 E0.01593
G1 X-18.322 Y-18.840 E0.34109
G1 X-18.322 Y-18.335 E0.01593
G1 X-25.978 Y-10.678 E0.34109
G1 X-25.978 Y-10.173 E0.01593
G1 X-18.322 Y-17.829 E0.34109
G1 X-18.322 Y-17.323 E0.01593
G1 X-25.978 Y-9.667 E0.34109
G1 X-25.978 Y-9.162 E0.01593
G1 X-18.322 Y-16.818 E0.34109
G1 X-18.322 Y-16.312 E0.01593
G1 X-25.978 Y-8.656 E0.34109
G1 X-25.978 Y-8.150 E0.01593
G1 X-18.322 Y-15.807 E0.34109
G1 X-18.322 Y-15.301 E0.01593
G1 X-25.978 Y-7.645 E0.34109
G1 X-25.978 Y-7.139 E0.01593
G1 X-18.322 Y-14.795 E0.34109
G1 X-18.322 Y-14.290 E0.01593
G1 X-25.978 Y-6.634 E0.34109
G1 X-25.978 Y-6.128 E0.01593
G1 X-18.322 Y-13.784 E0.34109
G1 X-18.322 Y-13.279 E0.01593
G1 X-25.978 Y-5.622 E0.34109
G1 X-25.978 Y-5.117 E0.01593
G1 X-18.322 Y-12.773 E0.34109
G1 X-18.322 Y-12.267 E0.01593
G1 X-25.978 Y-4.611 E0.34109
G1 X-25.978 Y-4.106 E0.01593
G1 X-18.322 Y-11.762 E0.34109
G1 X-18.322 Y-11.256 E0.01593
G1 X-25.978 Y-3.600 E0.34109
G1 X-25.978 Y-3.094 E0.01593
G1 X-18.322 Y-10.751 E0.34109
G1 X-18.322 Y-10.245 E0.01593
G1 X-25.978 Y-2.589 E0.34109
G1 X-25.978 Y-2.083 E0.01593
G1 X-18.322 Y-9.739 E0.34109
G1 X-18.322 Y-9.234 E0.01593
G1 X-25.978 Y-1.578 E0.34109
G1 X-25.978 Y-1.072 E0.01593
G1 X-18.322 Y-8.728 E0.34109
G1 X-18.322 Y-8.223 E0.01593
G1 X-25.978 Y-0.566 E0.34109
G1 X-25.978 Y-0.061 E0.01593
G1 X-18.322 Y-7.717 E0.34109
G1 X-18.322 Y-7.211 E0.01593
G1 X-25.978 Y0.445 E0.34109
G1 X-25.978 Y0.950 E0.01593
G1 X-18.322 Y-6.706 E0.34109
G1 X-18.322 Y-6.200 E0.01593
G1 X-25.978 Y1.456 E0.34109
