; generated by Slic3r 1.2.9 on 2019-12-13 at 06:40:48

; external perimeters extrusion width = 0.40mm
; perimeters extrusion width = 0.40mm
; infill extrusion width = 0.40mm
; solid infill extrusion width = 0.40mm
; top infill extrusion width = 0.40mm

M104 S220 ; set temperature
M83
T0
M116


M109 S220 ; wait for temperature to be reached
G21 ; set units to millimeters
G90 ; use absolute coordinates
M83 ; use relative distances for extrusion
G1 E-3.20000 F3000.00000
G1 Z0.400 F15000.000
G1 X-31.472 Y4.917 F15000.000
G1 Z0.200 F15000.000
G1 E3.20000 F3000.00000
G1 X-37.844 Y-35.876 E2.39043 F960.000
G1 X-37.896 Y-36.542 E0.03867
G1 X-37.896 Y-46.442 E0.57319
G1 X-37.501 Y-48.246 E0.10694
G1 X-36.387 Y-49.720 E0.10694
G1 X-34.759 Y-50.592 E0.10694
G1 X-33.582 Y-50.756 E0.06882
G1 X20.618 Y-50.756 E3.13805
G1 X22.422 Y-50.361 E0.10694
G1 X23.706 Y-49.455 E0.09094 F960.000
G1 X36.669 Y-36.171 E1.07465
G1 X37.647 Y-34.604 E0.10694
G1 X37.896 Y-33.158 E0.08495
G1 X37.896 Y46.442 E4.60865
G1 X37.501 Y48.246 E0.10694
G1 X36.387 Y49.720 E0.10694
G1 X34.759 Y50.592 E0.10694
G1 X33.582 Y50.756 E0.06882
G1 X-20.618 Y50.756 E3.13805
G1 X-22.422 Y50.361 E0.10694
G1 X-23.896 Y49.247 E0.10694
G1 X-24.881 Y47.108 E0.13635
G1 X-31.462 Y4.976 E2.46892
G1 X-30.813 Y4.874 F15000.000
G1 X-37.195 Y-35.977 E2.39391 F960.000
G1 X-37.239 Y-36.542 E0.03278
G1 X-37.239 Y-46.442 E0.57319
G1 X-36.844 Y-48.094 E0.09835
G1 X-35.746 Y-49.390 E0.09835
G1 X-33.582 Y-50.099 E0.13185
G1 X20.618 Y-50.099 E3.13805
G1 X22.270 Y-49.704 E0.09835
G1 X23.235 Y-48.996 E0.06931 F960.000
G1 X36.199 Y-35.712 E1.07465
G1 X37.071 Y-34.254 E0.09835
G1 X37.239 Y-33.158 E0.06421
G1 X37.239 Y46.442 E4.60865
G1 X36.844 Y48.094 E0.09835
G1 X35.746 Y49.390 E0.09835
G1 X33.582 Y50.099 E0.13185
G1 X-20.618 Y50.099 E3.13805
G1 X-22.270 Y49.704 E0.09835
G1 X-23.566 Y48.606 E0.09835
G1 X-24.231 Y47.006 E0.10030
G1 X-30.804 Y4.934 E2.46545
G1 E-3.20000 F3000.00000
G1 Z0.600 F15000.000
G1 X25.346 Y7.527 F15000.000
G1 Z0.200 F15000.000
G1 E3.20000 F3000.00000
G1 X25.346 Y-31.494 E2.25924 F960.000
G1 X31.918 Y-31.494 E0.38048
G1 X31.918 Y44.778 E4.41594
G1 X-18.954 Y44.778 E2.94535 F960.000
G1 X-18.954 Y38.206 E0.38048
G1 X25.346 Y38.206 E2.56486
G1 X25.346 Y7.587 E1.77275
G1 X24.689 Y7.587 F15000.000
G1 X24.689 Y-32.151 E2.30076 F960.000
G1 X32.575 Y-32.151 E0.45657
G1 X32.575 Y45.435 E4.49203
G1 X-19.611 Y45.435 E3.02143 F960.000
G1 X-19.611 Y37.549 E0.45657
G1 X24.689 Y37.549 E2.56486
G1 X24.689 Y7.647 E1.73123
G1 X24.032 Y7.647 F15000.000
G1 X24.032 Y-32.808 E2.34227 F960.000
G1 X33.232 Y-32.808 E0.53266
G1 X33.232 Y46.092 E4.56812
G1 X-20.268 Y46.092 E3.09752 F960.000
G1 X-20.268 Y36.892 E0.53266
G1 X24.032 Y36.892 E2.56486
G1 X24.032 Y7.707 E1.68971
G1 X24.378 Y7.447 F15000.000
G1 X25.745 Y38.023 F15000.000
G1 X31.519 Y43.797 E0.47421 F960.000
G1 X31.519 Y42.865 E0.05414
G1 X25.745 Y37.091 E0.47421
G1 X25.745 Y36.159 E0.05414
G1 X31.519 Y41.932 E0.47421
G1 X31.519 Y41.000 E0.05414
G1 X25.745 Y35.227 E0.47421
G1 X25.745 Y34.295 E0.05414
G1 X31.519 Y40.068 E0.47421
G1 X31.519 Y39.136 E0.05414
G1 X25.745 Y33.363 E0.47421
G1 X25.745 Y32.430 E0.05414
G1 X31.519 Y38.204 E0.47421
G1 X31.519 Y37.272 E0.05414
G1 X25.745 Y31.498 E0.47421
G1 X25.745 Y30.566 E0.05414
G1 X31.519 Y36.339 E0.47421
G1 X31.519 Y35.407 E0.05414
G1 X25.745 Y29.634 E0.47421
G1 X25.745 Y28.702 E0.05414
G1 X31.519 Y34.475 E0.47421
G1 X31.519 Y33.543 E0.05414
G1 X25.745 Y27.770 E0.47421
G1 X25.745 Y26.837 E0.05414
G1 X31.519 Y32.611 E0.47421
G1 X31.519 Y31.679 E0.05414
G1 X25.745 Y25.905 E0.47421
G1 X25.745 Y24.973 E0.05414
G1 X31.519 Y30.747 E0.47421
G1 X31.519 Y29.814 E0.05414
G1 X25.745 Y24.041 E0.47421
G1 X25.745 Y23.109 E0.05414
G1 X31.519 Y28.882 E0.47421
G1 X31.519 Y27.950 E0.05414
G1 X25.745 Y22.177 E0.47421
G1 X25.745 Y21.244 E0.05414
G1 X31.519 Y27.018 E0.47421
G1 X31.519 Y26.086 E0.05414
G1 X25.745 Y20.312 E0.47421
G1 X25.745 Y19.380 E0.05414
G1 X31.519 Y25.154 E0.47421
G1 X31.519 Y24.221 E0.05414
G1 X25.745 Y18.448 E0.47421
G1 X25.745 Y17.516 E0.05414
G1 X31.519 Y23.289 E0.47421
G1 X31.519 Y22.357 E0.05414
G1 X25.745 Y16.584 E0.47421
G1 X25.745 Y15.651 E0.05414
G1 X31.519 Y21.425 E0.47421
G1 X31.519 Y20.493 E0.05414
G1 X25.745 Y14.719 E0.47421
G1 X25.745 Y13.787 E0.05414
G1 X31.519 Y19.561 E0.47421
G1 X31.519 Y18.628 E0.05414
G1 X25.745 Y12.855 E0.47421
G1 X25.745 Y11.923 E0.05414
G1 X31.519 Y17.696 E0.47421
G1 X31.519 Y16.764 E0.05414
G1 X25.745 Y10.991 E0.47421
G1 X25.745 Y10.058 E0.05414
G1 X31.519 Y15.832 E0.47421
G1 X31.519 Y14.900 E0.05414
G1 X25.745 Y9.126 E0.47421
G1 X25.745 Y8.194 E0.05414
G1 X31.519 Y13.968 E0.47421
G1 X31.519 Y13.035 E0.05414
G1 X25.745 Y7.262 E0.47421
G1 X25.745 Y6.330 E0.05414
G1 X31.519 Y12.103 E0.47421
G1 X31.519 Y11.171 E0.05414
G1 X25.745 Y5.398 E0.47421
G1 X25.745 Y4.466 E0.05414
G1 X31.519 Y10.239 E0.47421
G1 X31.519 Y9.307 E0.05414
G1 X25.745 Y3.533 E0.47421
G1 X25.745 Y2.601 E0.05414
G1 X31.519 Y8.375 E0.47421
G1 X31.519 Y7.443 E0.05414
G1 X25.745 Y1.669 E0.47421
G1 X25.745 Y0.737 E0.05414
G1 X31.519 Y6.510 E0.47421
G1 X31.519 Y5.578 E0.05414
G1 X25.745 Y-0.195 E0.47421
G1 X25.745 Y-1.127 E0.05414
G1 X31.519 Y4.646 E0.47421
G1 X31.519 Y3.714 E0.05414
G1 X25.745 Y-2.060 E0.47421
G1 X25.745 Y-2.992 E0.05414
G1 X31.519 Y2.782 E0.47421
G1 X31.519 Y1.850 E0.05414
G1 X25.745 Y-3.924 E0.47421
G1 X25.745 Y-4.856 E0.05414
G1 X31.519 Y0.917 E0.47421
G1 X31.519 Y-0.015 E0.05414
G1 X25.745 Y-5.788 E0.47421
G1 X25.745 Y-6.720 E0.05414
G1 X31.519 Y-0.947 E0.47421
G1 X31.519 Y-1.879 E0.05414
G1 X25.745 Y-7.653 E0.47421
G1 X25.745 Y-8.585 E0.05414
G1 X31.519 Y-2.811 E0.47421
G1 X31.519 Y-3.743 E0.05414
G1 X25.745 Y-9.517 E0.47421
G1 X25.745 Y-10.449 E0.05414
G1 X31.519 Y-4.676 E0.47421
G1 X31.519 Y-5.608 E0.05414
G1 X25.745 Y-11.381 E0.47421
G1 X25.745 Y-12.313 E0.05414
G1 X31.519 Y-6.540 E0.47421
G1 X31.519 Y-7.472 E0.05414
G1 X25.745 Y-13.246 E0.47421
G1 X25.745 Y-14.178 E0.05414
G1 X31.519 Y-8.404 E0.47421
G1 X31.519 Y-9.336 E0.05414
G1 X25.745 Y-15.110 E0.47421
G1 X25.745 Y-16.042 E0.05414
G1 X31.519 Y-10.269 E0.47421
G1 X31.519 Y-11.201 E0.05414
G1 X25.745 Y-16.974 E0.47421
G1 X25.745 Y-17.906 E0.05414
G1 X31.519 Y-12.133 E0.47421
G1 X31.519 Y-13.065 E0.05414
G1 X25.745 Y-18.838 E0.47421
G1 X25.745 Y-19.771 E0.05414
G1 X31.519 Y-13.997 E0.47421
G1 X31.519 Y-14.929 E0.05414
G1 X25.745 Y-20.703 E0.47421
G1 X25.745 Y-21.635 E0.05414
G1 X31.519 Y-15.861 E0.47421
G1 X31.519 Y-16.794 E0.05414
G1 X25.745 Y-22.567 E0.47421
G1 X25.745 Y-23.499 E0.05414
G1 X31.519 Y-17.726 E0.47421
G1 X31.519 Y-18.658 E0.05414
G1 X25.745 Y-24.431 E0.47421
G1 X25.745 Y-25.364 E0.05414
G1 X31.519 Y-19.590 E0.47421
G1 X31.519 Y-20.522 E0.05414
G1 X25.745 Y-26.296 E0.47421
G1 X25.745 Y-27.228 E0.05414
G1 X31.519 Y-21.454 E0.47421
G1 X31.519 Y-22.387 E0.05414
G1 X25.745 Y-28.160 E0.47421
G1 X25.745 Y-29.092 E0.05414
G1 X31.519 Y-23.319 E0.47421
G1 X31.519 Y-24.251 E0.05414
G1 X25.745 Y-30.024 E0.47421
G1 X25.745 Y-30.957 E0.05414
G1 X31.519 Y-25.183 E0.47421
G1 X31.519 Y-26.115 E0.05414
G1 X26.539 Y-31.095 E0.40900
G1 X27.471 Y-31.095 E0.05414
G1 X31.519 Y-27.047 E0.33244
G1 X31.519 Y-27.980 E0.05414
G1 X28.403 Y-31.095 E0.25587
G1 X29.336 Y-31.095 E0.05414
G1 X31.519 Y-28.912 E0.17931
G1 X31.519 Y-29.844 E0.05414
G1 X30.268 Y-31.095 E0.10275
G1 X31.200 Y-31.095 E0.05414
G1 X31.519 Y-30.776 E0.02618
G1 X25.395 Y38.605 F15000.000
G1 X31.168 Y44.379 E0.47421 F960.000
G1 X30.236 Y44.379 E0.05414
G1 X24.463 Y38.605 E0.47421
G1 X23.531 Y38.605 E0.05414
G1 X29.304 Y44.379 E0.47421
G1 X28.372 Y44.379 E0.05414
G1 X22.598 Y38.605 E0.47421
G1 X21.666 Y38.605 E0.05414
G1 X27.440 Y44.379 E0.47421
G1 X26.508 Y44.379 E0.05414
G1 X20.734 Y38.605 E0.47421
G1 X19.802 Y38.605 E0.05414
G1 X25.575 Y44.379 E0.47421
G1 X24.643 Y44.379 E0.05414
G1 X18.870 Y38.605 E0.47421
G1 X17.938 Y38.605 E0.05414
G1 X23.711 Y44.379 E0.47421
G1 X22.779 Y44.379 E0.05414
G1 X17.005 Y38.605 E0.47421
G1 X16.073 Y38.605 E0.05414
G1 X21.847 Y44.379 E0.47421
G1 X20.915 Y44.379 E0.05414
G1 X15.141 Y38.605 E0.47421
G1 X14.209 Y38.605 E0.05414
G1 X19.982 Y44.379 E0.47421
G1 X19.050 Y44.379 E0.05414
G1 X13.277 Y38.605 E0.47421
G1 X12.345 Y38.605 E0.05414
G1 X18.118 Y44.379 E0.47421
G1 X17.186 Y44.379 E0.05414
G1 X11.412 Y38.605 E0.47421
G1 X10.480 Y38.605 E0.05414
G1 X16.254 Y44.379 E0.47421
G1 X15.322 Y44.379 E0.05414
G1 X9.548 Y38.605 E0.47421
G1 X8.616 Y38.605 E0.05414
G1 X14.389 Y44.379 E0.47421
G1 X13.457 Y44.379 E0.05414
G1 X7.684 Y38.605 E0.47421
G1 X6.752 Y38.605 E0.05414
G1 X12.525 Y44.379 E0.47421
G1 X11.593 Y44.379 E0.05414
G1 X5.819 Y38.605 E0.47421
G1 X4.887 Y38.605 E0.05414
G1 X10.661 Y44.379 E0.47421
G1 X9.729 Y44.379 E0.05414
G1 X3.955 Y38.605 E0.47421
G1 X3.023 Y38.605 E0.05414
G1 X8.796 Y44.379 E0.47421
G1 X7.864 Y44.379 E0.05414
G1 X2.091 Y38.605 E0.47421
G1 X1.159 Y38.605 E0.05414
G1 X6.932 Y44.379 E0.47421
G1 X6.000 Y44.379 E0.05414
G1 X0.227 Y38.605 E0.47421
G1 X-0.706 Y38.605 E0.05414
G1 X5.068 Y44.379 E0.47421
G1 X4.136 Y44.379 E0.05414
G1 X-1.638 Y38.605 E0.47421
G1 X-2.570 Y38.605 E0.05414
G1 X3.203 Y44.379 E0.47421
G1 X2.271 Y44.379 E0.05414
G1 X-3.502 Y38.605 E0.47421
G1 X-4.434 Y38.605 E0.05414
G1 X1.339 Y44.379 E0.47421
G1 X0.407 Y44.379 E0.05414
G1 X-5.366 Y38.605 E0.47421
G1 X-6.299 Y38.605 E0.05414
G1 X-0.525 Y44.379 E0.47421
G1 X-1.457 Y44.379 E0.05414
G1 X-7.231 Y38.605 E0.47421
G1 X-8.163 Y38.605 E0.05414
G1 X-2.389 Y44.379 E0.47421
G1 X-3.322 Y44.379 E0.05414
G1 X-9.095 Y38.605 E0.47421
G1 X-10.027 Y38.605 E0.05414
G1 X-4.254 Y44.379 E0.47421
G1 X-5.186 Y44.379 E0.05414
G1 X-10.959 Y38.605 E0.47421
G1 X-11.892 Y38.605 E0.05414
G1 X-6.118 Y44.379 E0.47421
G1 X-7.050 Y44.379 E0.05414
G1 X-12.824 Y38.605 E0.47421
G1 X-13.756 Y38.605 E0.05414
G1 X-7.982 Y44.379 E0.47421
G1 X-8.915 Y44.379 E0.05414
G1 X-14.688 Y38.605 E0.47421
G1 X-15.620 Y38.605 E0.05414
G1 X-9.847 Y44.379 E0.47421
G1 X-10.779 Y44.379 E0.05414
G1 X-16.552 Y38.605 E0.47421
G1 X-17.485 Y38.605 E0.05414
G1 X-11.711 Y44.379 E0.47421
G1 X-12.643 Y44.379 E0.05414
G1 X-18.417 Y38.605 E0.47421
G1 X-18.555 Y39.399 E0.04681
G1 X-13.575 Y44.379 E0.40899
G1 X-14.508 Y44.379 E0.05414
G1 X-18.555 Y40.331 E0.33243
G1 X-18.555 Y41.263 E0.05414
G1 X-15.440 Y44.379 E0.25586
G1 X-16.372 Y44.379 E0.05414
G1 X-18.555 Y42.196 E0.17930
G1 X-18.555 Y43.128 E0.05414
G1 X-17.304 Y44.379 E0.10274
G1 X-18.236 Y44.379 E0.05414
G1 X-18.555 Y44.060 E0.02617
G1 E-3.20000 F3000.00000
G1 Z0.600 F15000.000
G1 Z0.200 F15000.000
G1 Z0.600 F15000.000
G1 X12.382 Y-29.474 F15000.000
G1 Z0.200 F15000.000
G1 E3.20000 F3000.00000
G1 X12.382 Y-38.206 E0.50558 F960.000
G1 X-31.918 Y-38.206 E2.56486
G1 X-31.918 Y-44.778 E0.38048
G1 X18.954 Y-44.778 E2.94535
G1 X18.954 Y31.494 E4.41594
G1 X12.382 Y31.494 E0.38048 F960.000
G1 X12.382 Y-29.414 E3.52641
G1 X11.725 Y-29.414 F15000.000
G1 X11.725 Y-37.549 E0.47101 F960.000
G1 X-32.575 Y-37.549 E2.56486
G1 X-32.575 Y-45.435 E0.45657
G1 X19.611 Y-45.435 E3.02143
G1 X19.611 Y32.151 E4.49203
G1 X11.725 Y32.151 E0.45657 F960.000
G1 X11.725 Y-29.354 E3.56097
G1 X11.068 Y-29.354 F15000.000
G1 X11.068 Y-36.892 E0.43644 F960.000
G1 X-33.232 Y-36.892 E2.56486
G1 X-33.232 Y-46.092 E0.53266
G1 X20.268 Y-46.092 E3.09752
G1 X20.268 Y32.808 E4.56812
G1 X11.068 Y32.808 E0.53266 F960.000
G1 X11.068 Y-29.294 E3.59554
G1 X11.415 Y-29.554 F15000.000
G1 X12.781 Y-37.648 F15000.000
G1 X18.555 Y-31.875 E0.47683 F960.000
G1 X18.555 Y-30.937 E0.05474
G1 X12.781 Y-36.711 E0.47683
G1 X12.781 Y-35.774 E0.05474
G1 X18.555 Y-30.000 E0.47683
G1 X18.555 Y-29.063 E0.05474
G1 X12.781 Y-34.836 E0.47683
G1 X12.781 Y-33.899 E0.05474
G1 X18.555 Y-28.125 E0.47683
G1 X18.555 Y-27.188 E0.05474
G1 X12.781 Y-32.962 E0.47683
G1 X12.781 Y-32.024 E0.05474
G1 X18.555 Y-26.251 E0.47683
G1 X18.555 Y-25.313 E0.05474
G1 X12.781 Y-31.087 E0.47683
G1 X12.781 Y-30.150 E0.05474
G1 X18.555 Y-24.376 E0.47683
G1 X18.555 Y-23.439 E0.05474
G1 X12.781 Y-29.212 E0.47683
G1 X12.781 Y-28.275 E0.05474
G1 X18.555 Y-22.502 E0.47683
G1 X18.555 Y-21.564 E0.05474
G1 X12.781 Y-27.338 E0.47683
G1 X12.781 Y-26.400 E0.05474
G1 X18.555 Y-20.627 E0.47683
G1 X18.555 Y-19.690 E0.05474
G1 X12.781 Y-25.463 E0.47683
G1 X12.781 Y-24.526 E0.05474
G1 X18.555 Y-18.752 E0.47683
G1 X18.555 Y-17.815 E0.05474
G1 X12.781 Y-23.588 E0.47683
G1 X12.781 Y-22.651 E0.05474
G1 X18.555 Y-16.878 E0.47683
G1 X18.555 Y-15.940 E0.05474
G1 X12.781 Y-21.714 E0.47683
G1 X12.781 Y-20.776 E0.05474
G1 X18.555 Y-15.003 E0.47683
G1 X18.555 Y-14.066 E0.05474
G1 X12.781 Y-19.839 E0.47683
G1 X12.781 Y-18.902 E0.05474
G1 X18.555 Y-13.128 E0.47683
G1 X18.555 Y-12.191 E0.05474
G1 X12.781 Y-17.964 E0.47683
G1 X12.781 Y-17.027 E0.05474
G1 X18.555 Y-11.254 E0.47683
G1 X18.555 Y-10.316 E0.05474
G1 X12.781 Y-16.090 E0.47683
G1 X12.781 Y-15.153 E0.05474
G1 X18.555 Y-9.379 E0.47683
G1 X18.555 Y-8.442 E0.05474
G1 X12.781 Y-14.215 E0.47683
G1 X12.781 Y-13.278 E0.05474
G1 X18.555 Y-7.504 E0.47683
G1 X18.555 Y-6.567 E0.05474
G1 X12.781 Y-12.341 E0.47683
G1 X12.781 Y-11.403 E0.05474
G1 X18.555 Y-5.630 E0.47683
G1 X18.555 Y-4.692 E0.05474
G1 X12.781 Y-10.466 E0.47683
G1 X12.781 Y-9.529 E0.05474
G1 X18.555 Y-3.755 E0.47683
G1 X18.555 Y-2.818 E0.05474
G1 X12.781 Y-8.591 E0.47683
G1 X12.781 Y-7.654 E0.05474
G1 X18.555 Y-1.880 E0.47683
G1 X18.555 Y-0.943 E0.05474
G1 X12.781 Y-6.717 E0.47683
G1 X12.781 Y-5.779 E0.05474
G1 X18.555 Y-0.006 E0.47683
G1 X18.555 Y0.931 E0.05474
G1 X12.781 Y-4.842 E0.47683
G1 X12.781 Y-3.905 E0.05474
G1 X18.555 Y1.869 E0.47683
G1 X18.555 Y2.806 E0.05474
G1 X12.781 Y-2.967 E0.47683
G1 X12.781 Y-2.030 E0.05474
G1 X18.555 Y3.743 E0.47683
G1 X18.555 Y4.681 E0.05474
G1 X12.781 Y-1.093 E0.47683
G1 X12.781 Y-0.155 E0.05474
G1 X18.555 Y5.618 E0.47683
G1 X18.555 Y6.555 E0.05474
G1 X12.781 Y0.782 E0.47683
G1 X12.781 Y1.719 E0.05474
G1 X18.555 Y7.493 E0.47683
G1 X18.555 Y8.430 E0.05474
G1 X12.781 Y2.657 E0.47683
G1 X12.781 Y3.594 E0.05474
G1 X18.555 Y9.367 E0.47683
G1 X18.555 Y10.305 E0.05474
G1 X12.781 Y4.531 E0.47683
G1 X12.781 Y5.469 E0.05474
G1 X18.555 Y11.242 E0.47683
G1 X18.555 Y12.179 E0.05474
G1 X12.781 Y6.406 E0.47683
G1 X12.781 Y7.343 E0.05474
G1 X18.555 Y13.117 E0.47683
G1 X18.555 Y14.054 E0.05474
G1 X12.781 Y8.280 E0.47683
G1 X12.781 Y9.218 E0.05474
G1 X18.555 Y14.991 E0.47683
G1 X18.555 Y15.929 E0.05474
G1 X12.781 Y10.155 E0.47683
G1 X12.781 Y11.092 E0.05474
G1 X18.555 Y16.866 E0.47683
G1 X18.555 Y17.803 E0.05474
G1 X12.781 Y12.030 E0.47683
G1 X12.781 Y12.967 E0.05474
G1 X18.555 Y18.741 E0.47683
G1 X18.555 Y19.678 E0.05474
G1 X12.781 Y13.904 E0.47683
G1 X12.781 Y14.842 E0.05474
G1 X18.555 Y20.615 E0.47683
G1 X18.555 Y21.552 E0.05474
G1 X12.781 Y15.779 E0.47683
G1 X12.781 Y16.716 E0.05474
G1 X18.555 Y22.490 E0.47683
G1 X18.555 Y23.427 E0.05474
G1 X12.781 Y17.654 E0.47683
G1 X12.781 Y18.591 E0.05474
G1 X18.555 Y24.364 E0.47683
G1 X18.555 Y25.302 E0.05474
G1 X12.781 Y19.528 E0.47683
G1 X12.781 Y20.466 E0.05474
G1 X18.555 Y26.239 E0.47683
G1 X18.555 Y27.176 E0.05474
G1 X12.781 Y21.403 E0.47683
G1 X12.781 Y22.340 E0.05474
G1 X18.555 Y28.114 E0.47683
G1 X18.555 Y29.051 E0.05474
G1 X12.781 Y23.278 E0.47683
G1 X12.781 Y24.215 E0.05474
G1 X18.555 Y29.988 E0.47683
G1 X18.555 Y30.926 E0.05474
G1 X12.781 Y25.152 E0.47683
G1 X12.781 Y26.090 E0.05474
G1 X17.787 Y31.095 E0.41339
G1 X16.849 Y31.095 E0.05474
G1 X12.781 Y27.027 E0.33598
G1 X12.781 Y27.964 E0.05474
G1 X15.912 Y31.095 E0.25856
G1 X14.975 Y31.095 E0.05474
G1 X12.781 Y28.902 E0.18115
G1 X12.781 Y29.839 E0.05474
G1 X14.037 Y31.095 E0.10373
G1 X13.100 Y31.095 E0.05474
G1 X12.781 Y30.776 E0.02632
G1 X18.555 Y-44.060 F15000.000
G1 X18.236 Y-44.379 E0.02633 F960.000
G1 X17.299 Y-44.379 E0.05474
G1 X18.555 Y-43.123 E0.10374
G1 X18.555 Y-42.185 E0.05474
G1 X16.361 Y-44.379 E0.18116
G1 X15.424 Y-44.379 E0.05474
G1 X18.555 Y-41.248 E0.25857
G1 X18.555 Y-40.311 E0.05474
G1 X14.487 Y-44.379 E0.33598
G1 X13.549 Y-44.379 E0.05474
G1 X18.555 Y-39.373 E0.41340
G1 X18.555 Y-38.436 E0.05474
G1 X12.612 Y-44.379 E0.49081
G1 X11.675 Y-44.379 E0.05474
G1 X18.555 Y-37.499 E0.56822
G1 X18.555 Y-36.561 E0.05474
