; generated by Slic3r 1.2.9 on 2019-12-16 at 06:20:37

; external perimeters extrusion width = 0.40mm
; perimeters extrusion width = 0.40mm
; infill extrusion width = 0.40mm
; solid infill extrusion width = 0.40mm
; top infill extrusion width = 0.40mm

M104 S220 ; set temperature
M83
T0
M116


M109 S220 ; wait for temperature to be reached
G21 ; set units to millimeters
G90 ; use absolute coordinates
M83 ; use relative distances for extrusion
G1 E-3.20000 F3000.00000
G1 Z0.400 F15000.000
G1 X0.000 Y11.764 F15000.000
G1 Z0.200 F15000.000
G1 E3.20000 F3000.00000
G1 X-53.699 Y11.764 E3.10907 F960.000
G1 X-55.504 Y11.369 E0.10694
G1 X-56.977 Y10.255 E0.10694
G1 X-57.850 Y8.627 E0.10694
G1 X-58.014 Y7.450 E0.06882
G1 X-58.014 Y-7.450 E0.86267
G1 X-57.618 Y-9.254 E0.10694
G1 X-56.505 Y-10.728 E0.10694
G1 X-54.877 Y-11.600 E0.10694
G1 X-53.699 Y-11.764 E0.06882
G1 X46.229 Y-11.764 E5.78560
G1 X48.033 Y-11.369 E0.10694
G1 X49.279 Y-10.501 E0.08795 F960.000
G1 X56.729 Y-3.051 E0.61001
G1 X57.725 Y-1.495 E0.10694
G1 X57.980 Y0.334 E0.10694
G1 X57.446 Y2.102 E0.10694
G1 X56.729 Y3.051 E0.06882
G1 X49.279 Y10.501 E0.61000
G1 X47.724 Y11.497 E0.10694
G1 X46.229 Y11.764 E0.08795
G1 X0.060 Y11.764 E2.67306
G1 X0.060 Y11.107 F15000.000
G1 X-53.699 Y11.107 E3.11254 F960.000
G1 X-55.352 Y10.713 E0.09835
G1 X-56.647 Y9.614 E0.09835
G1 X-57.357 Y7.450 E0.13185
G1 X-57.357 Y-7.450 E0.86267
G1 X-56.962 Y-9.102 E0.09835
G1 X-55.864 Y-10.398 E0.09835
G1 X-53.699 Y-11.107 E0.13185
G1 X46.229 Y-11.107 E5.78560
G1 X47.881 Y-10.713 E0.09835
G1 X48.815 Y-10.036 E0.06676 F960.000
G1 X56.265 Y-2.586 E0.61001
G1 X57.154 Y-1.139 E0.09835
G1 X57.294 Y0.554 E0.09835
G1 X56.265 Y2.586 E0.13185
G1 X48.815 Y10.036 E0.61000
G1 X47.367 Y10.925 E0.09835
G1 X46.229 Y11.107 E0.06676
G1 X0.120 Y11.107 E2.66958
G1 E-3.20000 F3000.00000
G1 Z0.600 F15000.000
G1 X6.222 Y-5.786 F15000.000
G1 Z0.200 F15000.000
G1 E3.20000 F3000.00000
G1 X45.539 Y-5.786 E2.27637 F960.000
G1 X51.325 Y-0.000 E0.47374
G1 X45.539 Y5.786 E0.47374 F960.000
G1 X-21.535 Y5.786 E3.88346
G1 X-21.535 Y-5.786 E0.66997
G1 X6.162 Y-5.786 E1.60362
G1 X6.162 Y-6.443 F15000.000
G1 X45.812 Y-6.443 E2.29560 F960.000
G1 X52.255 Y-0.000 E0.52754
G1 X45.812 Y6.443 E0.52754 F960.000
G1 X-22.192 Y6.443 E3.93726
G1 X-22.192 Y-6.443 E0.74606
G1 X6.102 Y-6.443 E1.63819
G1 X6.102 Y-7.100 F15000.000
G1 X46.084 Y-7.100 E2.31483 F960.000
G1 X53.184 Y-0.000 E0.58135
G1 X46.084 Y7.100 E0.58135 F960.000
G1 X-26.545 Y7.100 E4.20503
G1 X-26.545 Y5.650 E0.08395
G1 X-22.849 Y5.650 E0.21396
G1 X-22.849 Y-5.650 E0.65424
G1 X-26.545 Y-5.650 E0.21396
G1 X-26.545 Y-7.100 E0.08395
G1 X6.042 Y-7.100 E1.88672
G1 X6.302 Y-6.754 F15000.000
G1 X-22.521 Y-6.375 F15000.000
G1 X-26.216 Y-6.375 E0.44190 F960.000
G1 E-3.20000 F3000.00000
G1 Z0.600 F15000.000
G1 X-21.136 Y5.068 F15000.000
G1 Z0.200 F15000.000
G1 E3.20000 F3000.00000
G1 X-20.817 Y5.387 E0.02628 F960.000
G1 X-19.882 Y5.387 E0.05457
G1 X-21.136 Y4.132 E0.10345
G1 X-21.136 Y3.196 E0.05457
G1 X-18.946 Y5.387 E0.18062
G1 X-18.010 Y5.387 E0.05457
G1 X-21.136 Y2.260 E0.25779
G1 X-21.136 Y1.325 E0.05457
G1 X-17.074 Y5.387 E0.33496
G1 X-16.138 Y5.387 E0.05457
G1 X-21.136 Y0.389 E0.41214
G1 X-21.136 Y-0.547 E0.05457
G1 X-15.202 Y5.387 E0.48931
G1 X-14.267 Y5.387 E0.05457
G1 X-21.136 Y-1.483 E0.56648
G1 X-21.136 Y-2.419 E0.05457
G1 X-13.331 Y5.387 E0.64365
G1 X-12.395 Y5.387 E0.05457
G1 X-21.136 Y-3.355 E0.72082
G1 X-21.136 Y-4.290 E0.05457
G1 X-11.459 Y5.387 E0.79799
G1 X-10.523 Y5.387 E0.05457
G1 X-21.136 Y-5.226 E0.87516
G1 X-20.361 Y-5.387 E0.04617
G1 X-9.587 Y5.387 E0.88839
G1 X-8.651 Y5.387 E0.05457
G1 X-19.425 Y-5.387 E0.88839
G1 X-18.489 Y-5.387 E0.05457
G1 X-7.716 Y5.387 E0.88839
G1 X-6.780 Y5.387 E0.05457
G1 X-17.553 Y-5.387 E0.88839
G1 X-16.617 Y-5.387 E0.05457
G1 X-5.844 Y5.387 E0.88839
G1 X-4.908 Y5.387 E0.05457
G1 X-15.682 Y-5.387 E0.88839
G1 X-14.746 Y-5.387 E0.05457
G1 X-3.972 Y5.387 E0.88839
G1 X-3.036 Y5.387 E0.05457
G1 X-13.810 Y-5.387 E0.88839
G1 X-12.874 Y-5.387 E0.05457
G1 X-2.101 Y5.387 E0.88839
G1 X-1.165 Y5.387 E0.05457
G1 X-11.938 Y-5.387 E0.88839
G1 X-11.002 Y-5.387 E0.05457
G1 X-0.229 Y5.387 E0.88839
G1 X0.707 Y5.387 E0.05457
G1 X-10.066 Y-5.387 E0.88839
G1 X-9.131 Y-5.387 E0.05457
G1 X1.643 Y5.387 E0.88839
G1 X2.579 Y5.387 E0.05457
G1 X-8.195 Y-5.387 E0.88839
G1 X-7.259 Y-5.387 E0.05457
G1 X3.515 Y5.387 E0.88839
G1 X4.450 Y5.387 E0.05457
G1 X-6.323 Y-5.387 E0.88839
G1 X-5.387 Y-5.387 E0.05457
G1 X5.386 Y5.387 E0.88839
G1 X6.322 Y5.387 E0.05457
G1 X-4.451 Y-5.387 E0.88839
G1 X-3.515 Y-5.387 E0.05457
G1 X7.258 Y5.387 E0.88839
G1 X8.194 Y5.387 E0.05457
G1 X-2.580 Y-5.387 E0.88839
G1 X-1.644 Y-5.387 E0.05457
G1 X9.130 Y5.387 E0.88839
G1 X10.066 Y5.387 E0.05457
G1 X-0.708 Y-5.387 E0.88839
G1 X0.228 Y-5.387 E0.05457
G1 X11.001 Y5.387 E0.88839
G1 X11.937 Y5.387 E0.05457
G1 X1.164 Y-5.387 E0.88839
G1 X2.100 Y-5.387 E0.05457
G1 X12.873 Y5.387 E0.88839
G1 X13.809 Y5.387 E0.05457
G1 X3.035 Y-5.387 E0.88839
G1 X3.971 Y-5.387 E0.05457
G1 X14.745 Y5.387 E0.88839
G1 X15.681 Y5.387 E0.05457
G1 X4.907 Y-5.387 E0.88839
G1 X5.843 Y-5.387 E0.05457
G1 X16.616 Y5.387 E0.88839
G1 X17.552 Y5.387 E0.05457
G1 X6.779 Y-5.387 E0.88839
G1 X7.715 Y-5.387 E0.05457
G1 X18.488 Y5.387 E0.88839
G1 X19.424 Y5.387 E0.05457
G1 X8.651 Y-5.387 E0.88839
G1 X9.586 Y-5.387 E0.05457
G1 X20.360 Y5.387 E0.88839
G1 X21.296 Y5.387 E0.05457
G1 X10.522 Y-5.387 E0.88839
G1 X11.458 Y-5.387 E0.05457
G1 X22.232 Y5.387 E0.88839
G1 X23.167 Y5.387 E0.05457
G1 X12.394 Y-5.387 E0.88839
G1 X13.330 Y-5.387 E0.05457
G1 X24.103 Y5.387 E0.88839
G1 X25.039 Y5.387 E0.05457
G1 X14.266 Y-5.387 E0.88839
G1 X15.202 Y-5.387 E0.05457
G1 X25.975 Y5.387 E0.88839
G1 X26.911 Y5.387 E0.05457
G1 X16.137 Y-5.387 E0.88839
G1 X17.073 Y-5.387 E0.05457
G1 X27.847 Y5.387 E0.88839
G1 X28.783 Y5.387 E0.05457
G1 X18.009 Y-5.387 E0.88839
G1 X18.945 Y-5.387 E0.05457
G1 X29.718 Y5.387 E0.88839
G1 X30.654 Y5.387 E0.05457
G1 X19.881 Y-5.387 E0.88839
G1 X20.817 Y-5.387 E0.05457
G1 X31.590 Y5.387 E0.88839
G1 X32.526 Y5.387 E0.05457
G1 X21.752 Y-5.387 E0.88839
G1 X22.688 Y-5.387 E0.05457
G1 X33.462 Y5.387 E0.88839
G1 X34.398 Y5.387 E0.05457
G1 X23.624 Y-5.387 E0.88839
G1 X24.560 Y-5.387 E0.05457
G1 X35.333 Y5.387 E0.88839
G1 X36.269 Y5.387 E0.05457
G1 X25.496 Y-5.387 E0.88839
G1 X26.432 Y-5.387 E0.05457
G1 X37.205 Y5.387 E0.88839
G1 X38.141 Y5.387 E0.05457
G1 X27.368 Y-5.387 E0.88839
G1 X28.303 Y-5.387 E0.05457
G1 X39.077 Y5.387 E0.88839
G1 X40.013 Y5.387 E0.05457
G1 X29.239 Y-5.387 E0.88839
G1 X30.175 Y-5.387 E0.05457
G1 X40.949 Y5.387 E0.88839
G1 X41.884 Y5.387 E0.05457
G1 X31.111 Y-5.387 E0.88839
G1 X32.047 Y-5.387 E0.05457
G1 X42.820 Y5.387 E0.88839
G1 X43.756 Y5.387 E0.05457
G1 X32.983 Y-5.387 E0.88839
G1 X33.918 Y-5.387 E0.05457
G1 X44.692 Y5.387 E0.88839
G1 X45.528 Y5.287 E0.04908
G1 X34.854 Y-5.387 E0.88013
G1 X35.790 Y-5.387 E0.05457
G1 X45.996 Y4.819 E0.84154
G1 X46.463 Y4.351 E0.03859
G1 X36.726 Y-5.387 E0.80296
G1 X37.662 Y-5.387 E0.05457
G1 X46.931 Y3.883 E0.76437
G1 X47.399 Y3.415 E0.03859
G1 X38.598 Y-5.387 E0.72579
G1 X39.534 Y-5.387 E0.05457
G1 X47.867 Y2.947 E0.68720
G1 X48.335 Y2.479 E0.03859
G1 X40.469 Y-5.387 E0.64862
G1 X41.405 Y-5.387 E0.05457
G1 X48.803 Y2.011 E0.61003
G1 X49.271 Y1.543 E0.03859
G1 X42.341 Y-5.387 E0.57145
G1 X43.277 Y-5.387 E0.05457
G1 X49.739 Y1.075 E0.53286
G1 X50.207 Y0.607 E0.03859
G1 X44.213 Y-5.387 E0.49427
G1 X45.149 Y-5.387 E0.05457
G1 X50.675 Y0.139 E0.45569
G1 X-22.521 Y6.375 F15000.000
G1 X-26.216 Y6.375 E0.44190 F960.000
G1 E-3.20000 F3000.00000
G1 Z0.600 F15000.000
G1 X-41.803 Y4.246 F15000.000
G1 Z0.200 F15000.000
G1 E3.20000 F3000.00000
G1 X-41.884 Y4.606 E0.02137 F600.000
G1 X-42.030 Y4.945 E0.02136
G1 X-42.238 Y5.250 E0.02139
G1 X-42.499 Y5.511 E0.02138
G1 X-42.804 Y5.719 E0.02138
G1 X-43.158 Y5.872 E0.02231
G1 X-43.610 Y5.958 E0.02666
G1 X-43.995 Y5.946 E0.02230
G1 X-44.356 Y5.866 E0.02137
G1 X-44.694 Y5.719 E0.02138
G1 X-45.000 Y5.511 E0.02138
G1 X-45.261 Y5.250 E0.02138
G1 X-45.477 Y4.932 E0.02231
G1 X-45.647 Y4.504 E0.02665
G1 X-45.707 Y4.123 E0.02229
G1 X-45.696 Y3.754 E0.02138
G1 X-45.615 Y3.394 E0.02137
G1 X-45.469 Y3.055 E0.02136
G1 X-45.261 Y2.750 E0.02139
G1 X-45.000 Y2.489 E0.02138
G1 X-44.681 Y2.272 E0.02230
G1 X-44.253 Y2.103 E0.02667
G1 X-43.873 Y2.042 E0.02230 F600.000
G1 X-43.504 Y2.054 E0.02137
G1 X-43.143 Y2.134 E0.02137
G1 X-42.804 Y2.281 E0.02138
G1 X-42.499 Y2.489 E0.02138
G1 X-42.238 Y2.750 E0.02138
G1 X-42.021 Y3.068 E0.02231
G1 X-41.852 Y3.496 E0.02665
G1 X-41.792 Y3.877 E0.02229
G1 X-41.801 Y4.186 E0.01791
G1 X-42.458 Y4.163 F15000.000
G1 X-42.512 Y4.402 E0.01418 F600.000
G1 X-42.609 Y4.627 E0.01418
G1 X-42.747 Y4.830 E0.01419
G1 X-42.920 Y5.003 E0.01419
G1 X-43.122 Y5.141 E0.01418
G1 X-43.352 Y5.240 E0.01451
G1 X-43.662 Y5.299 E0.01826
G1 X-43.913 Y5.291 E0.01451
G1 X-44.152 Y5.238 E0.01418
G1 X-44.377 Y5.141 E0.01419
G1 X-44.579 Y5.003 E0.01418
G1 X-44.752 Y4.830 E0.01419
G1 X-44.893 Y4.622 E0.01451
G1 X-45.009 Y4.329 E0.01826
G1 X-45.048 Y4.082 E0.01450
G1 X-45.041 Y3.837 E0.01418
G1 X-44.987 Y3.598 E0.01418
G1 X-44.890 Y3.373 E0.01418
G1 X-44.752 Y3.170 E0.01419
G1 X-44.579 Y2.997 E0.01419
G1 X-44.372 Y2.856 E0.01450
G1 X-44.079 Y2.740 E0.01827
G1 X-43.831 Y2.701 E0.01450 F600.000
G1 X-43.586 Y2.709 E0.01418
G1 X-43.347 Y2.762 E0.01418
G1 X-43.122 Y2.859 E0.01419
G1 X-42.920 Y2.997 E0.01418
G1 X-42.747 Y3.170 E0.01419
G1 X-42.606 Y3.378 E0.01451
G1 X-42.490 Y3.671 E0.01826
G1 X-42.450 Y3.918 E0.01450
G1 X-42.456 Y4.103 E0.01071
G1 X-42.268 Y4.317 F15000.000
G1 E-3.20000 F3000.00000
G1 Z0.600 F15000.000
G1 X-45.729 Y1.671 F15000.000
G1 Z0.200 F15000.000
G1 E3.20000 F3000.00000
G1 X-46.078 Y2.020 E0.02857 F600.000
G1 X-46.486 Y2.297 E0.02857
G1 X-46.964 Y2.504 E0.03010
G1 X-47.558 Y2.617 E0.03506
G1 X-48.078 Y2.601 E0.03010
G1 X-48.559 Y2.493 E0.02856
G1 X-49.012 Y2.297 E0.02857
G1 X-49.420 Y2.020 E0.02857
G1 X-49.769 Y1.671 E0.02857
G1 X-50.062 Y1.241 E0.03011
G1 X-50.285 Y0.678 E0.03505
G1 X-50.366 Y0.165 E0.03008
G1 X-50.350 Y-0.329 E0.02858
G1 X-50.243 Y-0.810 E0.02856
G1 X-50.047 Y-1.263 E0.02855
G1 X-49.769 Y-1.671 E0.02859
G1 X-49.420 Y-2.020 E0.02857
G1 X-48.991 Y-2.312 E0.03009
G1 X-48.427 Y-2.535 E0.03507
G1 X-47.914 Y-2.616 E0.03009 F600.000
G1 X-47.421 Y-2.601 E0.02857
G1 X-46.939 Y-2.493 E0.02856
G1 X-46.487 Y-2.297 E0.02857
G1 X-46.078 Y-2.020 E0.02857
G1 X-45.729 Y-1.671 E0.02857
G1 X-45.437 Y-1.241 E0.03011
G1 X-45.214 Y-0.678 E0.03505
G1 X-45.133 Y-0.165 E0.03009
G1 X-45.149 Y0.329 E0.02858
G1 X-45.256 Y0.810 E0.02856
G1 X-45.452 Y1.263 E0.02855
G1 X-45.696 Y1.621 E0.02512
G1 X-46.238 Y1.250 F15000.000
G1 X-46.499 Y1.511 E0.02138 F600.000
G1 X-46.804 Y1.719 E0.02137
G1 X-47.158 Y1.872 E0.02231
G1 X-47.610 Y1.958 E0.02666
G1 X-47.995 Y1.946 E0.02230
G1 X-48.356 Y1.866 E0.02137
G1 X-48.694 Y1.719 E0.02138
G1 X-49.000 Y1.511 E0.02138
G1 X-49.261 Y1.250 E0.02138
G1 X-49.477 Y0.932 E0.02231
G1 X-49.647 Y0.504 E0.02665
G1 X-49.707 Y0.123 E0.02229
G1 X-49.696 Y-0.246 E0.02138
G1 X-49.615 Y-0.606 E0.02137
G1 X-49.469 Y-0.945 E0.02136
G1 X-49.261 Y-1.250 E0.02139
G1 X-49.000 Y-1.511 E0.02138
G1 X-48.681 Y-1.728 E0.02230
G1 X-48.253 Y-1.897 E0.02667
G1 X-47.873 Y-1.958 E0.02230 F600.000
G1 X-47.504 Y-1.946 E0.02138
G1 X-47.143 Y-1.866 E0.02137
G1 X-46.804 Y-1.719 E0.02138
G1 X-46.499 Y-1.511 E0.02138
G1 X-46.238 Y-1.250 E0.02138
G1 X-46.021 Y-0.932 E0.02231
G1 X-45.852 Y-0.504 E0.02665
G1 X-45.792 Y-0.123 E0.02230
G1 X-45.803 Y0.246 E0.02138
G1 X-45.884 Y0.606 E0.02137
G1 X-46.030 Y0.945 E0.02136
G1 X-46.204 Y1.201 E0.01792
G1 X-46.747 Y0.830 F15000.000
G1 X-46.920 Y1.003 E0.01419 F600.000
G1 X-47.122 Y1.141 E0.01418
G1 X-47.352 Y1.240 E0.01451
G1 X-47.662 Y1.299 E0.01826
G1 X-47.913 Y1.291 E0.01451
G1 X-48.152 Y1.238 E0.01418
G1 X-48.377 Y1.141 E0.01419
G1 X-48.579 Y1.003 E0.01418
G1 X-48.752 Y0.830 E0.01419
G1 X-48.893 Y0.622 E0.01451
G1 X-49.009 Y0.329 E0.01826
G1 X-49.048 Y0.082 E0.01450
G1 X-49.041 Y-0.163 E0.01418
G1 X-48.987 Y-0.402 E0.01418
G1 X-48.890 Y-0.627 E0.01418
G1 X-48.752 Y-0.830 E0.01419
G1 X-48.579 Y-1.003 E0.01419
G1 X-48.372 Y-1.144 E0.01450
G1 X-48.079 Y-1.260 E0.01827
G1 X-47.831 Y-1.299 E0.01450 F600.000
G1 X-47.586 Y-1.291 E0.01418
G1 X-47.347 Y-1.238 E0.01418
G1 X-47.122 Y-1.141 E0.01419
G1 X-46.920 Y-1.003 E0.01418
G1 X-46.747 Y-0.830 E0.01419
G1 X-46.606 Y-0.622 E0.01451
G1 X-46.490 Y-0.329 E0.01826
G1 X-46.450 Y-0.082 E0.01450
G1 X-46.458 Y0.163 E0.01418
G1 X-46.512 Y0.402 E0.01418
G1 X-46.609 Y0.627 E0.01418
G1 X-46.713 Y0.780 E0.01071
G1 X-46.668 Y1.062 F15000.000
G1 E-3.20000 F3000.00000
G1 Z0.600 F15000.000
G1 X-48.852 Y-5.786 F15000.000
G1 Z0.200 F15000.000
G1 E3.20000 F3000.00000
G1 X-45.691 Y-5.786 E0.18299 F960.000
G1 X-46.047 Y-5.263 E0.03662
G1 X-46.243 Y-4.810 E0.02855 F960.000
G1 X-46.350 Y-4.329 E0.02856
G1 X-46.366 Y-3.835 E0.02858
G1 X-46.285 Y-3.322 E0.03008
G1 X-46.062 Y-2.759 E0.03505
G1 X-45.769 Y-2.329 E0.03011
G1 X-45.421 Y-1.980 E0.02857
G1 X-45.012 Y-1.703 E0.02857
G1 X-44.559 Y-1.507 E0.02857
G1 X-44.078 Y-1.399 E0.02856
G1 X-43.585 Y-1.384 E0.02857
G1 X-43.072 Y-1.465 E0.03009
G1 X-42.508 Y-1.688 E0.03507
G1 X-42.078 Y-1.980 E0.03010
G1 X-41.729 Y-2.329 E0.02857
G1 X-41.452 Y-2.737 E0.02859
G1 X-41.256 Y-3.190 E0.02855
G1 X-41.149 Y-3.671 E0.02856
G1 X-41.133 Y-4.165 E0.02858
G1 X-41.214 Y-4.678 E0.03008
G1 X-41.437 Y-5.241 E0.03505
G1 X-41.807 Y-5.786 E0.03814
G1 X-36.964 Y-5.786 E0.28044
G1 X-36.964 Y-3.386 E0.13895
G1 X-32.464 Y-3.386 E0.26054
G1 X-32.464 Y3.386 E0.39206
G1 X-36.964 Y3.386 E0.26054
G1 X-36.964 Y5.786 E0.13895
G1 X-41.807 Y5.786 E0.28044
G1 X-41.452 Y5.263 E0.03663
G1 X-41.256 Y4.810 E0.02855
G1 X-41.149 Y4.329 E0.02856
G1 X-41.133 Y3.835 E0.02858
G1 X-41.214 Y3.322 E0.03008
G1 X-41.437 Y2.759 E0.03505
G1 X-41.729 Y2.329 E0.03011
G1 X-42.078 Y1.980 E0.02857
G1 X-42.486 Y1.703 E0.02857
G1 X-42.939 Y1.507 E0.02857
G1 X-43.421 Y1.399 E0.02856
G1 X-43.914 Y1.384 E0.02857
G1 X-44.427 Y1.465 E0.03009
G1 X-44.991 Y1.688 E0.03507
G1 X-45.421 Y1.980 E0.03010
G1 X-45.769 Y2.329 E0.02857
G1 X-46.047 Y2.737 E0.02859
G1 X-46.243 Y3.190 E0.02855
G1 X-46.350 Y3.671 E0.02856
G1 X-46.366 Y4.165 E0.02858
G1 X-46.285 Y4.678 E0.03008
G1 X-46.062 Y5.241 E0.03505
G1 X-45.692 Y5.786 E0.03814
G1 X-52.035 Y5.786 E0.36729
G1 X-52.035 Y-5.786 E0.66997
G1 X-48.912 Y-5.786 E0.18082
G1 X-45.615 Y-4.606 F15000.000
G1 X-45.469 Y-4.945 E0.02137 F600.000
G1 X-45.261 Y-5.250 E0.02139
G1 X-45.000 Y-5.511 E0.02138
G1 X-44.694 Y-5.719 E0.02138
G1 X-44.341 Y-5.872 E0.02231
G1 X-43.889 Y-5.958 E0.02666 F600.000
G1 X-43.504 Y-5.946 E0.02230
G1 X-43.143 Y-5.866 E0.02137
G1 X-42.804 Y-5.719 E0.02138
G1 X-42.499 Y-5.511 E0.02138
G1 X-42.238 Y-5.250 E0.02138
G1 X-42.021 Y-4.932 E0.02231
G1 X-41.852 Y-4.504 E0.02665
G1 X-41.792 Y-4.123 E0.02229
G1 X-41.803 Y-3.754 E0.02138
G1 X-41.884 Y-3.394 E0.02137
G1 X-42.030 Y-3.055 E0.02136
G1 X-42.238 Y-2.750 E0.02139
G1 X-42.499 Y-2.489 E0.02138
G1 X-42.818 Y-2.272 E0.02230
G1 X-43.246 Y-2.103 E0.02667
G1 X-43.626 Y-2.042 E0.02230
G1 X-43.995 Y-2.054 E0.02137
G1 X-44.356 Y-2.134 E0.02137
G1 X-44.694 Y-2.281 E0.02138
G1 X-45.000 Y-2.489 E0.02138
G1 X-45.261 Y-2.750 E0.02138
G1 X-45.477 Y-3.068 E0.02231
G1 X-45.647 Y-3.496 E0.02665
G1 X-45.707 Y-3.877 E0.02229
G1 X-45.696 Y-4.246 E0.02138
G1 X-45.628 Y-4.548 E0.01790
G1 X-44.987 Y-4.402 F15000.000
G1 X-44.890 Y-4.627 E0.01418 F600.000
G1 X-44.752 Y-4.830 E0.01419
G1 X-44.579 Y-5.003 E0.01418
G1 X-44.377 Y-5.141 E0.01418
G1 X-44.147 Y-5.240 E0.01451
G1 X-43.837 Y-5.299 E0.01826 F600.000
G1 X-43.586 Y-5.291 E0.01450
G1 X-43.347 Y-5.238 E0.01418
G1 X-43.122 Y-5.141 E0.01419
G1 X-42.920 Y-5.003 E0.01418
G1 X-42.747 Y-4.830 E0.01419
G1 X-42.606 Y-4.622 E0.01451
G1 X-42.490 Y-4.329 E0.01826
G1 X-42.450 Y-4.082 E0.01450
G1 X-42.458 Y-3.837 E0.01418
G1 X-42.512 Y-3.598 E0.01418
G1 X-42.609 Y-3.373 E0.01418
G1 X-42.747 Y-3.170 E0.01419
G1 X-42.920 Y-2.997 E0.01419
G1 X-43.127 Y-2.856 E0.01450
G1 X-43.420 Y-2.740 E0.01827
G1 X-43.668 Y-2.701 E0.01450
G1 X-43.913 Y-2.709 E0.01418
G1 X-44.152 Y-2.762 E0.01418
